!!!!SEGMENT: pl-cz--iii-692--001-003_volckmer-augustin--miserere-aria-quoniam.krn
!!!cenid: 17xx:1150
!!!COM: Volckmer, Augustin
!!!COM-rismID: pe30020656
!!!CDT: 1755-~1820
!!!CNT:
!!!OPR: Miserere
!!!OTL: Aria - Quoniam
!!!OMV: 003
!!!PDT:
!!!AGN: Sacred
!!!YEC: Copyright 2022 Narodowy Instytut Fryderyka Chopina (https://polishscores.org)
!!!YEM: License CC-BY-4.0 (https://creativecommons.org/licenses/by/4.0)
!!!SMS-siglum: PL-CZ
!!!SMS-shelfmark: III-692
!!!SMS-shelfwork: 001-003 M
!!!SMS-variant:
!!!SMS-altvar:
!!!NIFC-rismSourceID: 300001392
!!!NIFC-rismChildID: 300001392
!!!NIFC-islandoraID: pl-cz:40420
!!!URL-pdf-islandora: https://repozytorium.nifc.pl/islandora/object/pl-cz%3A40420/datastream/PDF/view
!!!URL-scan: https://polish.musicsources.pl/pl/lokalizacje/galeria/rekopisy/6989/1 @EN{Scan on Polish Music Sources Website} @PL{Skany w portalu Dziedzictwo Muzyki Polskiej w otwartym dostępie}
!!!IIIF:
!!!ONB-nifc: UWAGA: części Miserere: 1. Miserere, 2. Recitativo – Amplius lava me, 3. Aria – Quoniam, 4. Aria – Asperges me, 5. Averte faciem tuam, 6. Cor mundum, 7. Duetto – Docebo iniquos, 8. Arietta – Domine labia mea, 9. Recitativo – Quoniam si voluisses, 10. Aria – Sacrificium Deo, 11. Gloria Patri, 12. Sicut erat
!!!AIN: 1 alto 1 bass 2 cor 2 oboe 1 organ 1 soprn 1 tenor 1 viola 2 violn
!!!key: E-
**kern	**dynam	**kern	**dynam	**kern	**dynam	**kern	**dynam	**kern	**text	**kern	**kern	**kern	**kern	**dynam	**kern	**dynam	**kern	**dynam	**kern	**dynam
*group	*group	*group4	*	*group4	*	*group4	*	*group3	*	*group3	*group3	*group3	*group2	*	*group2	*	*group1	*	*group1	*
*part12	*	*part11	*	*part10	*	*part9	*	*part8	*	*part7	*part6	*part5	*part4	*	*part3	*	*part2	*	*part1	*
*staff12	*	*staff11	*	*staff10	*	*staff9	*	*staff8	*	*staff7	*staff6	*staff5	*staff4	*	*staff3	*	*staff2	*	*staff1	*
*I"Organo.	*	*I"Viola obl	*	*I"Violino Secondo.	*	*I"Violino Primo	*	*I"Basſo.	*	*I"Tenore	*I"Alto.	*I"Canto	*I"Cornu Secondo in Dis	*	*I"Cornu Primo. in Dis	*	*I"Obaa Sečonda	*	*I"Oboa Prima.	*
*I'org	*	*I'vla	*	*I'vl 2	*	*I'vl 1	*	*I'B	*	*I'T	*I'A	*I'S	*I'cor 2	*	*I'cor 1	*	*I'ob 2	*	*I'ob 1	*
*Iorgan	*	*Iviola	*	*Ivioln	*	*Ivioln	*	*Ibass	*	*Itenor	*Ialto	*Isoprn	*Icor	*	*Icor	*	*Ioboe	*	*Ioboe	*
*ICklav	*	*ICstr	*	*ICstr	*	*ICstr	*	*ICvox	*	*ICvox	*ICvox	*ICvox	*ICbras	*	*ICbras	*	*ICww	*	*ICww	*
*clefF4	*	*clefC3	*	*clefG2	*	*clefG2	*	*clefF4	*	*clefC4	*clefC3	*clefC1	*clefG2	*	*clefG2	*	*clefG2	*	*clefG2	*
*	*	*	*	*	*	*	*	*	*	*	*	*	*ITrd5c9	*	*ITrd5c9	*	*	*	*	*
*k[b-e-a-]	*	*k[b-e-a-]	*	*k[b-e-a-]	*	*k[b-e-a-]	*	*k[b-e-a-]	*	*k[b-e-a-]	*k[b-e-a-]	*k[b-e-a-]	*k[b-e-a-]	*	*k[b-e-a-]	*	*k[b-e-a-]	*	*k[b-e-a-]	*
*E-:	*	*E-:	*	*E-:	*	*E-:	*	*E-:	*	*E-:	*E-:	*E-:	*E-:	*	*E-:	*	*E-:	*	*E-:	*
*M3/4	*	*M3/4	*	*M3/4	*	*M3/4	*	*M3/4	*	*M3/4	*M3/4	*M3/4	*M3/4	*	*M3/4	*	*M3/4	*	*M3/4	*
*>[A,B,A]	*	*>[A,B,A]	*	*>[A,B,A]	*	*>[A,B,A]	*	*>[A,B,A]	*	*>[A,B,A]	*>[A,B,A]	*>[A,B,A]	*>[A,B,A]	*	*>[A,B,A]	*	*>[A,B,A]	*	*>[A,B,A]	*
=1	=1	=1	=1	=1	=1	=1	=1	=1	=1	=1	=1	=1	=1	=1	=1	=1	=1	=1	=1	=1
*>A	*	*>A	*	*>A	*	*>A	*	*>A	*	*>A	*>A	*>A	*>A	*	*>A	*	*>A	*	*>A	*
!	!	!	!	!	!	!	!	!	!	!	!	!	!	!	!	!	!	!	!LO:TX:a:t=6	!
!LO:TX:a:i:t=Andante	!	!	!	!	!	!	!	!	!	!	!	!	!	!	!LO:TX:a:t=6	!	!LO:TX:a:t=6	!	!	!
!	!	!LO:TX:a:i:t=Andante	!	!LO:TX:a:i:t=Andante	!	!LO:TX:a:i:t=Andante	!	!LO:TX:a:i:t=Andante	!	!LO:TX:a:i:t=Basſo Solo\nQvoniam Tacet	!LO:TX:a:i:t=Recit&colon; et Aria Basſo Solo Tacet	!LO:TX:a:i:t=Recit&colon; et Aria Basſo Solo Tacet	!LO:TX:a:B:t=Andante	!	!LO:TX:a:i:t=Andante	!	!LO:TX:a:i:t=Andante	!	!LO:TX:a:i:t=Andante	!
!	!	!	!	!LO:TX:a:i:t=No 1:color=grey	!	!LO:TX:a:i:t=No 1.:color=grey:rj	!	!	!	!	!	!	!	!	!	!	!	!	!	!
.	.	.	.	.	.	16qqdd/	.	.	.	.	.	.	.	.	.	.	.	.	.	.
!	!	!LO:TX:a:t=P:problem=w źródle kolejność i wysokość znaków przykluczowych - B- e- a-	!	!	!	!	!	!LO:TX:a:t=P:problem=w źródle kolejność i wysokość znaków przykluczowych - E- A- BB-	!	!	!	!	!	!	!	!	!	!	!	!
!LO:TX:a:t=P:problem=w źródle kolejność i wysokość znaków przykluczowych - E- A- BB-	!	!	!	!	!	!	!	!	!	!	!	!	!LO:TX:a:i:t=I:color=grey:rj	!	!	!	!	!	!LO:TX:a:i:t=No 1:color=grey:rj	!
!	!	!	!	!	!	!	!	!	!	!	!	!	!LO:TX:a:t=6	!	!	!	!	!	!	!
8C/L	.	4c/	.	4e-/	.	8cc\L	.	0.r	.	2.ryy	2.ryy	2.ryy	0.r	.	0.r	.	0.r	.	0.r	.
8C/	.	.	.	.	.	(16bn\L	.	.	.	.	.	.	.	.	.	.	.	.	.	.
.	.	.	.	.	.	16cc\JJ)	.	.	.	.	.	.	.	.	.	.	.	.	.	.
8C/	.	4c/	.	4e-/	.	4g/	.	.	.	.	.	.	.	.	.	.	.	.	.	.
8C/	.	.	.	.	.	.	.	.	.	.	.	.	.	.	.	.	.	.	.	.
8C/	.	8r	.	8r	.	8r	.	.	.	.	.	.	.	.	.	.	.	.	.	.
!	!	!	!	!	!	!	!LO:DY:b:t=p.	!	!	!	!	!	!	!	!	!	!	!	!	!
8C/J	.	8Bn/	.	8f/	.	[8a-/	p	.	.	.	.	.	.	.	.	.	.	.	.	.
=2	=2	=2	=2	=2	=2	=2	=2	=2	=2	=2	=2	=2	=2	=2	=2	=2	=2	=2	=2	=2
*tremolo	*	*	*	*	*	*	*	*	*	*	*	*	*	*	*	*	*	*	*	*
!	!	!LO:SIC:v:o=4B-/	!	!	!	!	!	!	!	!	!	!	!	!	!	!	!	!	!	!
8C/L	.	4Bn	.	4f/	.	4a-/]	.	.	.	2.ryy	2.ryy	2.ryy	.	.	.	.	.	.	.	.
8C/	.	.	.	.	.	.	.	.	.	.	.	.	.	.	.	.	.	.	.	.
8C/	.	4c/	.	4e-/	.	4g/	.	.	.	.	.	.	.	.	.	.	.	.	.	.
8C/J	.	.	.	.	.	.	.	.	.	.	.	.	.	.	.	.	.	.	.	.
*Xtremolo	*	*	*	*	*	*	*	*	*	*	*	*	*	*	*	*	*	*	*	*
!	!	!	!	!	!LO:DY:b	!	!	!	!	!	!	!	!	!	!	!	!	!	!	!
8E-\L	.	8r	.	8r	f	8r	.	.	.	.	.	.	.	.	.	.	.	.	.	.
!	!	!	!	!	!	!	!LO:DY:a:t=f&colon;e	!	!	!	!	!	!	!	!	!	!	!	!	!
8E-\J	.	8e-\	.	8c/	.	8c/	f	.	.	.	.	.	.	.	.	.	.	.	.	.
=3	=3	=3	=3	=3	=3	=3	=3	=3	=3	=3	=3	=3	=3	=3	=3	=3	=3	=3	=3	=3
!LO:TX:t=P:problem=mixed beam	!	!	!	!	!	!	!	!	!	!	!	!	!	!	!	!	!	!	!	!
8F\L	.	4f\	.	8.Bn/L	.	8.d/L	.	.	.	2.ryy	2.ryy	2.ryy	.	.	.	.	.	.	.	.
8F\	.	.	.	.	.	.	.	.	.	.	.	.	.	.	.	.	.	.	.	.
.	.	.	.	16f/Jk	.	16a-/Jk	.	.	.	.	.	.	.	.	.	.	.	.	.	.
!	!	!LO:TX:t=P:problem=mixed beam	!	!	!	!	!	!	!	!	!	!	!	!	!	!	!	!	!	!
8G\	.	8e-\L	.	8e-/L	.	(8g/L	.	.	.	.	.	.	.	.	.	.	.	.	.	.
8G\	.	8f\	.	8d/	.	8f/	.	.	.	.	.	.	.	.	.	.	.	.	.	.
8GG/	.	8g\	.	8c/	.	8e-/	.	.	.	.	.	.	.	.	.	.	.	.	.	.
8GG/J	.	8G/J	.	8B/J	.	8d/J)	.	.	.	.	.	.	.	.	.	.	.	.	.	.
=4	=4	=4	=4	=4	=4	=4	=4	=4	=4	=4	=4	=4	=4	=4	=4	=4	=4	=4	=4	=4
4C/	.	4c\	.	8.c/L	.	8.e-/L	.	.	.	2.ryy	2.ryy	2.ryy	.	.	.	.	.	.	.	.
.	.	.	.	16d/Jk	.	16f/Jk	.	.	.	.	.	.	.	.	.	.	.	.	.	.
8r	.	4r	.	4e-/	.	8g/L	.	.	.	.	.	.	.	.	.	.	.	.	.	.
8C/L	.	.	.	.	.	8c/	.	.	.	.	.	.	.	.	.	.	.	.	.	.
8E-/	.	4e-\	.	4r	.	8c/	.	.	.	.	.	.	.	.	.	.	.	.	.	.
8C/J	.	.	.	.	.	8c/J	.	.	.	.	.	.	.	.	.	.	.	.	.	.
=5	=5	=5	=5	=5	=5	=5	=5	=5	=5	=5	=5	=5	=5	=5	=5	=5	=5	=5	=5	=5
!LO:TX:t=P:problem=mixed beam	!	!	!	!	!	!	!	!	!	!	!	!	!	!	!	!	!	!	!	!
8F\L	.	4f\	.	8.f/L	.	8.d/L	.	0.r	.	2.ryy	2.ryy	2.ryy	1.r	.	1.r	.	1.r	.	1.r	.
8F\	.	.	.	.	.	.	.	.	.	.	.	.	.	.	.	.	.	.	.	.
.	.	.	.	16f/Jk	.	16a-/Jk	.	.	.	.	.	.	.	.	.	.	.	.	.	.
8G\	.	8e-\L	.	(8e-/L	.	(8g/L	.	.	.	.	.	.	.	.	.	.	.	.	.	.
8G\	.	8f\	.	8d/	.	8f/	.	.	.	.	.	.	.	.	.	.	.	.	.	.
8GG/	.	8g\	.	8c/	.	8e-/	.	.	.	.	.	.	.	.	.	.	.	.	.	.
!	!	!	!	!LO:SIC:v:o=8B-/J)	!	!	!	!	!	!	!	!	!	!	!	!	!	!	!	!
8GG/J	.	8g\J	.	8Bn	.	8d/J)	.	.	.	.	.	.	.	.	.	.	.	.	.	.
=6	=6	=6	=6	=6	=6	=6	=6	=6	=6	=6	=6	=6	=6	=6	=6	=6	=6	=6	=6	=6
4G\	.	4a-\	.	4c/	.	(16f/LL	.	.	.	2.ryy	2.ryy	2.ryy	.	.	.	.	.	.	.	.
.	.	.	.	.	.	16e-/	.	.	.	.	.	.	.	.	.	.	.	.	.	.
.	.	.	.	.	.	16d/	.	.	.	.	.	.	.	.	.	.	.	.	.	.
.	.	.	.	.	.	16e-/JJ)	.	.	.	.	.	.	.	.	.	.	.	.	.	.
.	.	.	.	.	.	8qqe-/	.	.	.	.	.	.	.	.	.	.	.	.	.	.
4GG/	.	4g\	.	4B-/	.	4d/	.	.	.	.	.	.	.	.	.	.	.	.	.	.
4r	.	4r	.	4r	.	4r	.	.	.	.	.	.	.	.	.	.	.	.	.	.
!	!	!LO:LB:g=original	!	!	!	!LO:LB:g=original	!	!	!	!	!	!	!	!	!	!	!	!	!	!
=7	=7	=7	=7	=7	=7	=7	=7	=7	=7	=7	=7	=7	=7	=7	=7	=7	=7	=7	=7	=7
*	*	*	*	*	*	*	*	*	*	*	*	*	*	*	*	*	*2\right	*	*2\right	*
!	!	!	!	!LO:SIC:v:o=(8B-/L	!	!	!	!	!	!	!	!	!	!	!	!	!	!	!	!
!	!	!	!	!LO:TX:a:i:t=Dolce	!	!LO:TX:a:i:t=dulce	!	!	!	!	!	!	!	!	!	!	!	!	!	!
!	!	!	!	!	!	!	!	!	!	!	!	!	!	!	!	!	!	!	!	!LO:DY:b:rj
8BBn/L	.	8g\L	.	8Bn	.	(8d/L	.	.	.	2.ryy	2.ryy	2.ryy	2.G/	.	2.G/	.	2bn\	.	2dd\	p
8GG/	.	8Bn\	.	8d/)	.	8g/)	.	.	.	.	.	.	.	.	.	.	.	.	.	.
!	!	!	!	!LO:SIC:v:o=(8B-/	!	!	!	!	!	!	!	!	!	!	!	!	!	!	!	!
8BB/	.	8g\	.	8Bn	.	(8d/	.	.	.	.	.	.	.	.	.	.	.	.	.	.
8GG/	.	8B\	.	8d/)	.	8g/)	.	.	.	.	.	.	.	.	.	.	.	.	.	.
!	!	!	!	!	!	!	!	!	!	!	!	!	!	!	!	!	!	!	!LO:TX:b:i:t=Dolce	!
8C/	.	8g\	.	(8c/	.	(8d/	.	.	.	.	.	.	.	.	.	.	4cc\	.	4ee-\	.
8GG/J	.	8c\J	.	8e-/J)	.	8g/J)	.	.	.	.	.	.	.	.	.	.	.	.	.	.
=8	=8	=8	=8	=8	=8	=8	=8	=8	=8	=8	=8	=8	=8	=8	=8	=8	=8	=8	=8	=8
!	!	!	!	!LO:SIC:v:o=4B-/	!	!	!LO:DY:a:t=p&colon;	!	!	!	!	!	!	!	!	!	!	!	!	!
!	!	!	!	!	!LO:DY:b:rj	!	!	!	!	!	!	!	!	!	!	!	!	!	!	!
8D/L	.	8g\L	.	4Bn	p	8d/L|	p	.	.	2.ryy	2.ryy	2.ryy	2.G/	.	2.G/	.	4bn\	.	8dd\L	.
8GG/	.	8d\	.	.	.	(8g/	.	.	.	.	.	.	.	.	.	.	.	.	8gg\	.
8BB-/	.	8g\	.	4d/	.	8b-/	.	.	.	.	.	.	.	.	.	.	4b\	.	8dd\	.
!	!	!LO:SIC:v:o=8B-\	!	!	!	!	!	!	!	!	!	!	!	!	!	!	!	!	!	!
8GG/J	.	8Bn	.	.	.	8dd/J)	.	.	.	.	.	.	.	.	.	.	.	.	8gg\	.
8C/L	.	8g\	.	4e-/	.	16cc\LL	.	.	.	.	.	.	.	.	.	.	4cc\	.	8ee-\	.
.	.	.	.	.	.	(16g\	.	.	.	.	.	.	.	.	.	.	.	.	.	.
8GG/J	.	8c\J	.	.	.	16e-\	.	.	.	.	.	.	.	.	.	.	.	.	8gg\J	.
.	.	.	.	.	.	16c\JJ)	.	.	.	.	.	.	.	.	.	.	.	.	.	.
!LO:LB:g=original	!	!	!	!	!	!	!	!	!	!	!	!	!	!	!	!	!	!	!	!
=9	=9	=9	=9	=9	=9	=9	=9	=9	=9	=9	=9	=9	=9	=9	=9	=9	=9	=9	=9	=9
!	!	!	!	!LO:SIC:v:o=(8B-/L	!	!	!LO:DY:a:t=f&colon;e	!	!	!	!	!	!	!	!	!	!LO:SIC:v:o=2b-\	!	!	!
!	!	!	!	!	!LO:DY:b:rj	!	!	!	!	!	!	!	!	!	!	!	!	!	!	!LO:DY:b:rj
8BBn/L	.	8g\L	.	8Bn	f	(8d/L	f	0.r	.	2.ryy	2.ryy	2.ryy	2.G/	.	2.G/	.	2bn	.	2dd\	f
!	!	!LO:SIC:v:o=8B-\	!	!	!	!	!	!	!	!	!	!	!	!	!	!	!	!	!	!
8GG/	.	8Bn	.	8d/)	.	8g/)	.	.	.	.	.	.	.	.	.	.	.	.	.	.
!	!	!	!	!LO:SIC:v:o=(8B-/	!	!	!	!	!	!	!	!	!	!	!	!	!	!	!	!
8BB/	.	8g\	.	8Bn	.	(8d/	.	.	.	.	.	.	.	.	.	.	.	.	.	.
!	!	!LO:SIC:v:o=8B-\	!	!	!	!	!	!	!	!	!	!	!	!	!	!	!	!	!	!
8GG/	.	8Bn	.	8d/J)	.	8g/)	.	.	.	.	.	.	.	.	.	.	.	.	.	.
!	!	!	!	!LO:LB:g=original	!	!	!	!	!	!	!	!	!	!	!	!	!	!	!	!
8C/	.	8g\	.	(8c/L	.	(8d/	.	.	.	.	.	.	.	.	.	.	4cc\	.	4ee-\	.
8GG/J	.	8c\J	.	8e-/J)	.	8g/J)	.	.	.	.	.	.	.	.	.	.	.	.	.	.
=10	=10	=10	=10	=10	=10	=10	=10	=10	=10	=10	=10	=10	=10	=10	=10	=10	=10	=10	=10	=10
!	!	!	!	!LO:SIC:v:o=4B-/	!	!	!LO:DY:a:t=p.	!	!	!	!	!	!	!	!	!	!LO:SIC:v:o=4b-\	!	!	!
!	!	!	!	!	!LO:DY:b:rj	!	!	!	!	!	!	!	!	!	!	!	!	!	!	!
8D/L	.	8g\L	.	4Bn	p	8d/L	p	.	.	2.ryy	2.ryy	2.ryy	2.G/	.	2.G/	.	4bn	.	8dd\L	p
8GG/	.	8d\	.	.	.	(8g/	.	.	.	.	.	.	.	.	.	.	.	.	8gg\	.
!	!	!	!	!	!	!LO:SIC:v:o=8b-/	!	!	!	!	!	!	!	!	!	!	!LO:SIC:v:o=4b-\	!	!	!
8BB-/	.	8g\	.	4d/	.	8bn	.	.	.	.	.	.	.	.	.	.	4bn	.	8dd\	.
!	!	!LO:SIC:v:o=8B-\	!	!	!	!	!	!	!	!	!	!	!	!	!	!	!	!	!	!
8GG/	.	8Bn	.	.	.	8dd/J)	.	.	.	.	.	.	.	.	.	.	.	.	8gg\	.
8C/	.	8g\	.	4e-/	.	16cc/LL	.	.	.	.	.	.	.	.	.	.	4cc\	.	8ee-\	.
.	.	.	.	.	.	16g/	.	.	.	.	.	.	.	.	.	.	.	.	.	.
8GG/J	.	8c\J	.	.	.	16e-/	.	.	.	.	.	.	.	.	.	.	.	.	8gg\J	.
.	.	.	.	.	.	16c/JJ	.	.	.	.	.	.	.	.	.	.	.	.	.	.
=11	=11	=11	=11	=11	=11	=11	=11	=11	=11	=11	=11	=11	=11	=11	=11	=11	=11	=11	=11	=11
*	*	*	*	*	*	*	*	*	*	*	*	*	*2\right	*	*2\right	*	*	*	*	*
!	!	!	!	!	!LO:DY:b	!	!	!	!	!	!	!	!	!	!	!	!	!	!	!
8r	.	8r	.	8r	f	8r	.	.	.	2.ryy	2.ryy	2.ryy	2f\	.	2f\	.	4ff\	.	4aa-\	f
!	!	!LO:SIC:v:o=4b-\	!	!	!	!	!LO:DY:a:t=f&colon;e	!	!	!	!	!	!	!	!	!	!	!	!	!
8F\L	.	4bn	.	4f/	.	4a-/	f	.	.	.	.	.	.	.	.	.	.	.	.	.
8F\	.	.	.	.	.	.	.	.	.	.	.	.	.	.	.	.	2ff\	.	2aa-\	.
!	!	!LO:SIC:v:o=4b-\	!	!	!	!	!	!	!	!	!	!	!	!	!	!	!	!	!	!
8F\	.	4bn	.	4f/	.	4a-/	.	.	.	.	.	.	.	.	.	.	.	.	.	.
8F\	.	.	.	.	.	.	.	.	.	.	.	.	4r	.	4r	.	.	.	.	.
!	!	!LO:SIC:v:o=8b-\	!	!	!	!	!	!	!	!	!	!	!	!	!	!	!	!	!	!
8F\J	.	8bn	.	8f/	.	8a-/	.	.	.	.	.	.	.	.	.	.	.	.	.	.
=12	=12	=12	=12	=12	=12	=12	=12	=12	=12	=12	=12	=12	=12	=12	=12	=12	=12	=12	=12	=12
8r	.	8r	.	8r	.	8r	.	.	.	2.ryy	2.ryy	2.ryy	2G/	.	2g\	.	4dd\	.	4bbn\	.
8D\L	.	4f\	.	4d/	.	4bn/	.	.	.	.	.	.	.	.	.	.	.	.	.	.
8D\	.	.	.	.	.	.	.	.	.	.	.	.	.	.	.	.	2dd\	.	2bb\	.
8D\	.	4f\	.	4d/	.	4b/	.	.	.	.	.	.	.	.	.	.	.	.	.	.
8D\	.	.	.	.	.	.	.	.	.	.	.	.	4r	.	4r	.	.	.	.	.
8D\J	.	8f\	.	8d/	.	8b/	.	.	.	.	.	.	.	.	.	.	.	.	.	.
=13	=13	=13	=13	=13	=13	=13	=13	=13	=13	=13	=13	=13	=13	=13	=13	=13	=13	=13	=13	=13
!	!	!	!	!	!	!	!	!	!	!	!	!	!LO:TX:a:t=1	!	!	!	!	!	!	!
8C/L	.	8c/	.	8e-/	.	(8cc/L	.	0.r	.	2.ryy	2.ryy	2.ryy	2.r	.	2.r	.	8ee-\	.	8ccc\L	.
8CC/J	.	4B-/	.	4f/	.	8a-/)	.	.	.	.	.	.	.	.	.	.	4ff\	.	8aa-\	.
4C/	.	.	.	.	.	(8a-/	.	.	.	.	.	.	.	.	.	.	.	.	8aa-\	.
.	.	8c/	.	8e-/	.	8g/J)	.	.	.	.	.	.	.	.	.	.	8ee-\	.	8gg\J	.
8r	.	8r	.	8r	.	8r	.	.	.	.	.	.	.	.	.	.	4r	.	4r	.
8BB-/	.	8B-/	.	8f/	.	8f/	.	.	.	.	.	.	.	.	.	.	.	.	.	.
=14	=14	=14	=14	=14	=14	=14	=14	=14	=14	=14	=14	=14	=14	=14	=14	=14	=14	=14	=14	=14
8C/L	.	8c\L	.	16f/LL	.	(16f/LL	.	.	.	2.ryy	2.ryy	2.ryy	4r	.	4r	.	8r	.	8r	.
.	.	.	.	16e-/	.	16e-/	.	.	.	.	.	.	.	.	.	.	.	.	.	.
8E-/J	.	8e-\J	.	16d/	.	16d/	.	.	.	.	.	.	.	.	.	.	8dd\	.	8ff\	.
.	.	.	.	16c/JJ	.	16c/JJ)	.	.	.	.	.	.	.	.	.	.	.	.	.	.
4G\	.	4g\	.	4g/	.	4g/	.	.	.	.	.	.	4G/	.	4g\	.	4cc\	.	4ee-\	.
4GG/	.	4G/	.	4G/	.	4G/	.	.	.	.	.	.	4G/	.	4g\	.	4b-\	.	4dd\	.
!	!	!	!	!	!	!	!	!	!	!	!	!	!	!	!LO:LB:g=original	!	!	!	!	!
=15	=15	=15	=15	=15	=15	=15	=15	=15	=15	=15	=15	=15	=15	=15	=15	=15	=15	=15	=15	=15
!	!	!	!	!LO:TX:t=P:problem=mixed beam	!	!LO:TX:t=P:problem=mixed beam	!	!	!	!	!	!	!LO:TX:a:t=35	!	!LO:TX:a:t=35	!	!	!	!	!
4C/	.	8.c/L	.	8.c/L	.	8.c/L	.	.	.	2.ryy	2.ryy	2.ryy	0.r	.	0.r	.	4cc\	.	4cc\	.
.	.	16c/K	.	16cc\Jk	.	16cc\Jk	.	.	.	.	.	.	.	.	.	.	.	.	.	.
4C/	.	8.G/	.	8.g/L	.	8.g/L	.	.	.	.	.	.	.	.	.	.	4cc\	.	4cc\	.
.	.	16c/K	.	16cc/K	.	16cc/K	.	.	.	.	.	.	.	.	.	.	.	.	.	.
4C/	.	8.E-/	.	8.e-/	.	8.e-/	.	.	.	.	.	.	.	.	.	.	4cc\	.	4cc\	.
.	.	16G/Jk	.	16g/Jk	.	16g/Jk	.	.	.	.	.	.	.	.	.	.	.	.	.	.
!	!	!	!	!	!	!LO:LB:g=original	!	!	!	!	!	!	!	!	!	!	!	!	!	!
=16	=16	=16	=16	=16	=16	=16	=16	=16	=16	=16	=16	=16	=16	=16	=16	=16	=16	=16	=16	=16
2C/	.	4C/	.	4c/	.	4c/	.	.	.	2.ryy	2.ryy	2.ryy	.	.	.	.	2cc\	.	2cc\	.
.	.	4c/	.	4c/	.	4cc\	.	.	.	.	.	.	.	.	.	.	.	.	.	.
4r	.	4r	.	4r	.	4r	.	.	.	.	.	.	.	.	.	.	4r	.	4r	.
!	!	!LO:PB:g=original	!	!	!	!	!	!	!	!	!	!	!	!	!	!	!	!	!LO:LB:g=original	!
!	!	!	!	!	!	!	!	!	!	!	!	!	!	!	!	!	!LO:LB:g=original	!	!	!
=17	=17	=17	=17	=17	=17	=17	=17	=17	=17	=17	=17	=17	=17	=17	=17	=17	=17	=17	=17	=17
*tremolo	*	*	*	*	*	*	*	*	*	*	*	*	*	*	*	*	*	*	*	*
!	!	!	!	!	!	!	!	!	!	!	!	!	!	!	!	!	!LO:TX:a:t=33	!	!LO:TX:a:t=33.	!
!	!	!	!	!	!	!	!LO:DY:b:t=pianiſsime	!	!	!	!	!	!	!	!	!	!	!	!	!
.	.	.	.	.	.	16qqdd/	pp	16qqd/	.	.	.	.	.	.	.	.	.	.	.	.
!	!LO:DY:b	!	!LO:DY:b:rj	!	!LO:DY:b:t=pianiſsi	!	!	!	!	!	!	!	!	!	!	!	!	!	!	!
8C/L	p	4c/	p	4e-/	pp	8cc\L	.	8c\	Quo-	2.ryy	2.ryy	2.ryy	.	.	.	.	0.r	.	0.r	.
8C/	.	.	.	.	.	16bn\L	.	16Bn\LL	-ni-	.	.	.	.	.	.	.	.	.	.	.
.	.	.	.	.	.	16cc\JJ	.	16c\JJ	.	.	.	.	.	.	.	.	.	.	.	.
8C/	.	4c/	.	4e-/	.	4g/	.	4G\	-am	.	.	.	.	.	.	.	.	.	.	.
8C/	.	.	.	.	.	.	.	.	.	.	.	.	.	.	.	.	.	.	.	.
8C/	.	8r	.	8r	.	8r	.	4r	.	.	.	.	.	.	.	.	.	.	.	.
8C/J	.	8Bn/	.	8f/	.	8g/	.	.	.	.	.	.	.	.	.	.	.	.	.	.
=18	=18	=18	=18	=18	=18	=18	=18	=18	=18	=18	=18	=18	=18	=18	=18	=18	=18	=18	=18	=18
!	!	!LO:SIC:v:o=4B-/	!	!	!	!	!	!	!	!	!	!	!	!	!	!	!	!	!	!
8C/L	.	4Bn	.	4f/	.	4a-/	.	4r	.	2.ryy	2.ryy	2.ryy	.	.	.	.	.	.	.	.
8C/	.	.	.	.	.	.	.	.	.	.	.	.	.	.	.	.	.	.	.	.
8C/	.	4c/	.	4e-/	.	4g/	.	4r	.	.	.	.	.	.	.	.	.	.	.	.
8C/J	.	.	.	.	.	.	.	.	.	.	.	.	.	.	.	.	.	.	.	.
*Xtremolo	*	*	*	*	*	*	*	*	*	*	*	*	*	*	*	*	*	*	*	*
8E-\L	.	8r	.	8r	.	8r	.	4C/	i-	.	.	.	.	.	.	.	.	.	.	.
8E-\J	.	8e-\	.	8c/	.	8c/	.	.	.	.	.	.	.	.	.	.	.	.	.	.
=19	=19	=19	=19	=19	=19	=19	=19	=19	=19	=19	=19	=19	=19	=19	=19	=19	=19	=19	=19	=19
!LO:TX:t=P:problem=mixed beam	!	!	!	!	!	!	!	!	!	!	!	!	!	!	!	!	!	!	!	!
8F\L	.	4f\	.	8.Bn/L	.	8.d/L	.	4.D/	-ni-	2.ryy	2.ryy	2.ryy	0.r	.	0.r	.	.	.	.	.
8F\	.	.	.	.	.	.	.	.	.	.	.	.	.	.	.	.	.	.	.	.
.	.	.	.	16f/Jk	.	16a-/Jk	.	.	.	.	.	.	.	.	.	.	.	.	.	.
!	!	!	!	!LO:LB:g=original	!	!	!	!	!	!	!	!	!	!	!	!	!	!	!	!
!	!	!LO:TX:t=P:problem=mixed beam	!	!	!	!	!	!	!	!	!	!	!	!	!	!	!	!	!	!
8G\	.	8e-\L	.	8e-/L	.	8g/L	.	.	.	.	.	.	.	.	.	.	.	.	.	.
8G\	.	8f\	.	8d/	.	8f/	.	8A-\	-qui-	.	.	.	.	.	.	.	.	.	.	.
8GG/	.	8g\	.	8c/	.	8e-/	.	8G\	-ta-	.	.	.	.	.	.	.	.	.	.	.
8GG/J	.	8G/J	.	8B/J	.	8d/J	.	8F\	-tem	.	.	.	.	.	.	.	.	.	.	.
=20	=20	=20	=20	=20	=20	=20	=20	=20	=20	=20	=20	=20	=20	=20	=20	=20	=20	=20	=20	=20
4C/	.	4c\	.	8.c/L	.	8.e-/L	.	8.E-\L	me-	2.ryy	2.ryy	2.ryy	.	.	.	.	.	.	.	.
.	.	.	.	16d/Jk	.	16f/Jk	.	16F\Jk	.	.	.	.	.	.	.	.	.	.	.	.
8r	.	4r	.	4e-/	.	8g/L	.	4G\	-am	.	.	.	.	.	.	.	.	.	.	.
!LO:LB:g=original	!	!	!	!	!	!	!	!	!	!	!	!	!	!	!	!	!	!	!	!
8C/L	.	.	.	.	.	8c/	.	.	.	.	.	.	.	.	.	.	.	.	.	.
8E-/	.	4e-\	.	8r	.	8c/	.	8r	.	.	.	.	.	.	.	.	.	.	.	.
8C/J	.	.	.	8c/	.	8c/J	.	8C/	i-	.	.	.	.	.	.	.	.	.	.	.
=21	=21	=21	=21	=21	=21	=21	=21	=21	=21	=21	=21	=21	=21	=21	=21	=21	=21	=21	=21	=21
!LO:TX:t=P:problem=mixed beam	!	!	!	!	!	!	!	!	!	!	!	!	!	!	!	!	!	!	!	!
8F\L	.	4f\	.	8.B-/L	.	8.d/L	.	4.D/	-ni-	2.ryy	2.ryy	2.ryy	.	.	.	.	0.r	.	0.r	.
8F\	.	.	.	.	.	.	.	.	.	.	.	.	.	.	.	.	.	.	.	.
.	.	.	.	16f/Jk	.	16a-/Jk	.	.	.	.	.	.	.	.	.	.	.	.	.	.
8G\	.	8e-\L	.	8e-/L	.	8g/L	.	.	.	.	.	.	.	.	.	.	.	.	.	.
8G\	.	8f\	.	8d/	.	8f/	.	8A-\	-qui-	.	.	.	.	.	.	.	.	.	.	.
8GG/	.	8g\	.	8c/	.	8e-/	.	8G\	-ta-	.	.	.	.	.	.	.	.	.	.	.
8GG/J	.	8g\J	.	8B-/J	.	8d/J	.	8F\	-tem	.	.	.	.	.	.	.	.	.	.	.
=22	=22	=22	=22	=22	=22	=22	=22	=22	=22	=22	=22	=22	=22	=22	=22	=22	=22	=22	=22	=22
.	.	.	.	.	.	.	.	16qqF/	.	.	.	.	.	.	.	.	.	.	.	.
4C/	.	4g\	.	4c/	.	16f/LL	.	8E-\L	me-	2.ryy	2.ryy	2.ryy	.	.	.	.	.	.	.	.
.	.	.	.	.	.	16e-/	.	.	.	.	.	.	.	.	.	.	.	.	.	.
.	.	.	.	.	.	16d/	.	16D\L	.	.	.	.	.	.	.	.	.	.	.	.
.	.	.	.	.	.	16e-/JJ	.	16E-\JJ	.	.	.	.	.	.	.	.	.	.	.	.
4CC/	.	4g\	.	4c/	.	4c/	.	4C/	-am	.	.	.	.	.	.	.	.	.	.	.
4r	.	8r	.	8r	.	8r	.	4r	.	.	.	.	.	.	.	.	.	.	.	.
.	.	8e-\	.	8g/	.	[8ee-\	.	.	.	.	.	.	.	.	.	.	.	.	.	.
!	!	!	!	!	!	!	!	!LO:LB:g=original	!	!	!	!	!	!	!	!	!	!	!	!
=23	=23	=23	=23	=23	=23	=23	=23	=23	=23	=23	=23	=23	=23	=23	=23	=23	=23	=23	=23	=23
*2\right	*	*	*	*	*	*	*	*	*	*	*	*	*	*	*	*	*	*	*	*
*tremolo	*	*	*	*	*	*	*	*	*	*	*	*	*	*	*	*	*	*	*	*
8E-\L	.	4e-\	.	4g/	.	4ee-\]	.	4E-\	e-	2.ryy	2.ryy	2.ryy	0.r	.	0.r	.	.	.	.	.
8E-\	.	.	.	.	.	.	.	.	.	.	.	.	.	.	.	.	.	.	.	.
8E-\	.	8d\L	.	8f/L	.	8dd\L	.	8D\	-go	.	.	.	.	.	.	.	.	.	.	.
8E-\J	.	8c\	.	8a-/	.	(>8cc\	.	8c\L	Cog-	.	.	.	.	.	.	.	.	.	.	.
8E-\L	.	8B-X\	.	8g/	.	8b-X\)	.	8B-X\	.	.	.	.	.	.	.	.	.	.	.	.
8D\J	.	8A-\J	.	8f/J	.	8a-\J	.	8A-\J	.	.	.	.	.	.	.	.	.	.	.	.
=24	=24	=24	=24	=24	=24	=24	=24	=24	=24	=24	=24	=24	=24	=24	=24	=24	=24	=24	=24	=24
8E-\L	.	8G/L	.	8e-/L	.	16a-/LL	.	16A-\LL	-noſ-	2.ryy	2.ryy	2.ryy	.	.	.	.	.	.	.	.
.	.	.	.	.	.	16g/	.	16G\	.	.	.	.	.	.	.	.	.	.	.	.
8E-\	.	8A-/J	.	8f/J	.	16cc/	.	16c\	.	.	.	.	.	.	.	.	.	.	.	.
.	.	.	.	.	.	16b-/JJ	.	16B-\JJ	.	.	.	.	.	.	.	.	.	.	.	.
8E-\	.	4B-/	.	4g/	.	4b-/	.	4B-\	-co	.	.	.	.	.	.	.	.	.	.	.
8F\	.	.	.	.	.	.	.	.	.	.	.	.	.	.	.	.	.	.	.	.
!	!	!	!	!	!	!LO:LB:g=original	!	!	!	!	!	!	!	!	!	!	!	!	!	!
8G\	.	8r	.	8r	.	8r	.	8r	.	.	.	.	.	.	.	.	.	.	.	.
8E-\J	.	8g\	.	8g/	.	8ee-\	.	8E-\	et	.	.	.	.	.	.	.	.	.	.	.
!	!	!LO:LB:g=original	!	!	!	!	!	!	!	!	!	!	!	!	!	!	!	!	!	!
=25	=25	=25	=25	=25	=25	=25	=25	=25	=25	=25	=25	=25	=25	=25	=25	=25	=25	=25	=25	=25
!LO:TX:t=P:problem=mixed beam	!	!	!	!	!	!	!	!	!	!	!	!	!	!	!	!	!	!	!	!
8E-\L	.	4e-\	.	4g/	.	4ee-\	.	4E-\	pec-	2.ryy	2.ryy	2.ryy	.	.	.	.	0.r	.	0.r	.
8E-\	.	.	.	.	.	.	.	.	.	.	.	.	.	.	.	.	.	.	.	.
8E-\	.	8d\L	.	8f/L	.	8dd\L	.	8D\L	-ca-	.	.	.	.	.	.	.	.	.	.	.
8A-\	.	8c\	.	8a-/	.	8cc\	.	8c\J	.	.	.	.	.	.	.	.	.	.	.	.
8B-X\	.	8B-\	.	8g/	.	8b-\	.	8B-\L	-tum	.	.	.	.	.	.	.	.	.	.	.
8BB-/J	.	8A-\J	.	8f/J	.	8a-\J	.	8A-\J	.	.	.	.	.	.	.	.	.	.	.	.
=26	=26	=26	=26	=26	=26	=26	=26	=26	=26	=26	=26	=26	=26	=26	=26	=26	=26	=26	=26	=26
!	!	!	!	!	!	!LO:TUP:b:problem=klamra łukowa	!	!LO:TUP:a:problem=klamra łukowa	!	!	!	!	!	!	!	!	!	!	!	!
8E-/L	.	4G/	.	4e-/	.	12g/L	.	12G\L	me-	2.ryy	2.ryy	2.ryy	.	.	.	.	.	.	.	.
.	.	.	.	.	.	12f/	.	12F\	.	.	.	.	.	.	.	.	.	.	.	.
8BB-/J	.	.	.	.	.	.	.	.	.	.	.	.	.	.	.	.	.	.	.	.
.	.	.	.	.	.	12e-/J	.	12E-\J	.	.	.	.	.	.	.	.	.	.	.	.
4EE-/	.	4B-/	.	4G/	.	4e-/	.	4E-\	-um	.	.	.	.	.	.	.	.	.	.	.
4r	.	4r	.	4r	.	4r	.	4r	.	.	.	.	.	.	.	.	.	.	.	.
=27	=27	=27	=27	=27	=27	=27	=27	=27	=27	=27	=27	=27	=27	=27	=27	=27	=27	=27	=27	=27
.	.	.	.	.	.	16qqdd/	.	.	.	.	.	.	.	.	.	.	.	.	.	.
!	!LO:DY:b:rj	!	!	!	!	!	!	!	!	!	!	!	!	!	!	!	!	!	!	!
8A-\L	p	8e-\L	.	8a-/L	.	8cc\L	.	16d\LL	Con-	2.ryy	2.ryy	2.ryy	0.r	.	0.r	.	.	.	.	.
.	.	.	.	.	.	.	.	16c\	.	.	.	.	.	.	.	.	.	.	.	.
8A-\	.	8e-\	.	8a-/	.	16b-\L	.	16B-\	.	.	.	.	.	.	.	.	.	.	.	.
.	.	.	.	.	.	16cc\JJ	.	16c\JJ	.	.	.	.	.	.	.	.	.	.	.	.
8A-\	.	8e-\	.	8a-/	.	8a-/L	.	4A-\	-tra	.	.	.	.	.	.	.	.	.	.	.
!	!	!	!	!	!	!	!LO:DY:a:t=f&colon;e	!	!	!	!	!	!	!	!	!	!	!	!	!
8A-\J	.	8e-\J	.	8e-/J	.	8e-/J	f	.	.	.	.	.	.	.	.	.	.	.	.	.
!	!LO:DY:b	!	!LO:DY:b:rj	!	!	!	!	!	!	!	!	!	!	!	!	!	!	!	!	!
16D-X/LL	f	16d-X\LL	f	16d-X/LL	.	16d-X/LL	.	4r	.	.	.	.	.	.	.	.	.	.	.	.
16C/	.	16c\	.	16c/	.	16c/	.	.	.	.	.	.	.	.	.	.	.	.	.	.
16BB-/	.	16B-\	.	16B-/	.	16B-/	.	.	.	.	.	.	.	.	.	.	.	.	.	.
16AA-/JJ	.	16A-\JJ	.	16A-/JJ	.	16A-/JJ	.	.	.	.	.	.	.	.	.	.	.	.	.	.
!	!	!	!	!LO:LB:g=original	!	!	!	!	!	!	!	!	!	!	!	!	!	!	!	!
=28	=28	=28	=28	=28	=28	=28	=28	=28	=28	=28	=28	=28	=28	=28	=28	=28	=28	=28	=28	=28
!	!	!LO:TX:t=P:problem=mixed beam	!	!	!	!	!	!	!	!	!	!	!	!	!	!	!	!	!	!
!	!	!	!	!	!	!	!LO:DY:b:t=p&colon;	!	!	!	!	!	!	!	!	!	!	!	!	!
.	.	.	.	.	.	8qqcc/	p	.	.	.	.	.	.	.	.	.	.	.	.	.
!	!LO:DY:b	!	!LO:DY:b	!	!	!	!	!	!	!	!	!	!	!	!	!	!	!	!	!
8E-\L	p	8e-\L	p	8g/L	.	8b-\L	.	16c\LL	me	2.ryy	2.ryy	2.ryy	.	.	.	.	.	.	.	.
.	.	.	.	.	.	.	.	16B-\	.	.	.	.	.	.	.	.	.	.	.	.
8E-\	.	8e-\	.	8g/	.	16a-\L	.	16A-\	.	.	.	.	.	.	.	.	.	.	.	.
.	.	.	.	.	.	16b-\JJ	.	16B-\JJ	.	.	.	.	.	.	.	.	.	.	.	.
!	!	!	!	!	!	!	!LO:DY:a:t=f&colon;e	!	!	!	!	!	!	!	!	!	!	!	!	!
8E-\	.	8e-\	.	8g/	.	8g/L	f	4G\	est	.	.	.	.	.	.	.	.	.	.	.
8E-\J	.	8e-\	.	8g/	.	8e-/	.	.	.	.	.	.	.	.	.	.	.	.	.	.
!	!LO:DY:b:rj	!	!LO:DY:b	!	!	!	!	!	!	!	!	!	!	!	!	!	!	!	!	!
8BB-/L	f	8B-/	f	8B-/	.	8B-/	.	4r	.	.	.	.	.	.	.	.	.	.	.	.
8GG/J	.	8G/J	.	8G/J	.	8G/J	.	.	.	.	.	.	.	.	.	.	.	.	.	.
=29	=29	=29	=29	=29	=29	=29	=29	=29	=29	=29	=29	=29	=29	=29	=29	=29	=29	=29	=29	=29
!	!LO:DY:b	!	!LO:DY:b:rj	!	!	!	!LO:DY:a:t=p&colon;	!	!	!	!	!	!	!	!	!	!	!	!	!
4.BB-/	p	4.dn\	p	4.f/	.	4.a-/	p	4.A-\	Con-	2.ryy	2.ryy	2.ryy	.	.	.	.	0.r	.	0.r	.
8D/	.	8f\	.	8d/	.	16f/LL	.	16F\LL	-tra	.	.	.	.	.	.	.	.	.	.	.
.	.	.	.	.	.	16a-/JJ	.	16A-\JJ	.	.	.	.	.	.	.	.	.	.	.	.
.	.	.	.	.	.	16qqa-/	.	.	.	.	.	.	.	.	.	.	.	.	.	.
8E-\L	.	8e-\L	.	8e-/L	.	8g/L	.	16A-\LL	me	.	.	.	.	.	.	.	.	.	.	.
.	.	.	.	.	.	.	.	16G\JJ	.	.	.	.	.	.	.	.	.	.	.	.
8G\J	.	8e-\J	.	8g/J	.	16f/L	.	16F\LL	est	.	.	.	.	.	.	.	.	.	.	.
.	.	.	.	.	.	16e-/JJ	.	16E-\JJ	.	.	.	.	.	.	.	.	.	.	.	.
=30	=30	=30	=30	=30	=30	=30	=30	=30	=30	=30	=30	=30	=30	=30	=30	=30	=30	=30	=30	=30
4B-\	.	4B-/	.	4e-/	.	4g/	.	4B-\	Sem-	2.ryy	2.ryy	2.ryy	.	.	.	.	.	.	.	.
4BB-/	.	4B-/	.	4B-/	.	4f/	.	4BB-/	-per	.	.	.	.	.	.	.	.	.	.	.
!LO:TX:b:i:t=V ſ&colon;	!	!	!	!	!	!	!	!	!	!	!	!	!	!	!	!	!	!	!	!
4r	.	4r	.	4r	.	4r	.	4r	.	.	.	.	.	.	.	.	.	.	.	.
!LO:PB:g=original	!	!	!	!	!	!	!	!LO:LB:g=original	!	!	!	!	!	!	!	!	!	!	!	!
=31	=31	=31	=31	=31	=31	=31	=31	=31	=31	=31	=31	=31	=31	=31	=31	=31	=31	=31	=31	=31
*Xtremolo	*	*	*	*	*	*	*	*	*	*	*	*	*	*	*	*	*	*	*	*
8r	.	8r	.	8r	.	4.b-/	.	4.B-\	Ti-	2.ryy	2.ryy	2.ryy	0.r	.	0.r	.	.	.	.	.
8BB-/L	.	8f\	.	8d/L	.	.	.	.	.	.	.	.	.	.	.	.	.	.	.	.
*	*	*2\right	*	*	*	*	*	*	*	*	*	*	*	*	*	*	*	*	*	*
*	*	*tremolo	*	*	*	*	*	*	*	*	*	*	*	*	*	*	*	*	*	*
8BB-/	.	8f\L	.	8d/	.	.	.	.	.	.	.	.	.	.	.	.	.	.	.	.
8BB-/	.	8f\	.	8d/	.	8f/	.	8F\	-bi	.	.	.	.	.	.	.	.	.	.	.
*	*	*	*	*	*	*	*	*	*ij	*	*	*	*	*	*	*	*	*	*	*
8BB-/	.	8f\	.	8d/	.	8dd\L	.	8d\	Ti-	.	.	.	.	.	.	.	.	.	.	.
8BB-/J	.	8f\J	.	8d/J	.	8b-\J	.	8B-\	-bi	.	.	.	.	.	.	.	.	.	.	.
*	*	*	*	*	*	*	*	*	*Xij	*	*	*	*	*	*	*	*	*	*	*
=32	=32	=32	=32	=32	=32	=32	=32	=32	=32	=32	=32	=32	=32	=32	=32	=32	=32	=32	=32	=32
.	.	.	.	.	.	16qqcc/	.	.	.	.	.	.	.	.	.	.	.	.	.	.
8r	.	8r	.	8r	.	8b-\L	.	16c\LL	So-	2.ryy	2.ryy	2.ryy	.	.	.	.	.	.	.	.
.	.	.	.	.	.	.	.	16B-\	.	.	.	.	.	.	.	.	.	.	.	.
8C/	.	8f\	.	8e-/	.	16an\L	.	16An\	.	.	.	.	.	.	.	.	.	.	.	.
.	.	.	.	.	.	16b-\JJ	.	16B-\JJ	.	.	.	.	.	.	.	.	.	.	.	.
*tremolo	*	*	*	*tremolo	*	*	*	*	*	*	*	*	*	*	*	*	*	*	*	*
8C/L	.	8f\L	.	8e-/L	.	4a\	.	4A\	-li	.	.	.	.	.	.	.	.	.	.	.
8C/	.	8f\	.	8e-/	.	.	.	.	.	.	.	.	.	.	.	.	.	.	.	.
8C/	.	8f\	.	8e-/	.	4r	.	4r	.	.	.	.	.	.	.	.	.	.	.	.
8C/J	.	8f\J	.	8e-/J	.	.	.	.	.	.	.	.	.	.	.	.	.	.	.	.
!	!	!	!	!	!	!LO:LB:g=original	!	!	!	!	!	!	!	!	!	!	!	!	!	!
=33	=33	=33	=33	=33	=33	=33	=33	=33	=33	=33	=33	=33	=33	=33	=33	=33	=33	=33	=33	=33
8r	.	8r	.	8r	.	4.ff\	.	4.A-X\	So-	2.ryy	2.ryy	2.ryy	.	.	.	.	0.r	.	0.r	.
8D/L	.	8f\L	.	8a-/L	.	.	.	.	.	.	.	.	.	.	.	.	.	.	.	.
8D/	.	8f\	.	8a-/	.	.	.	.	.	.	.	.	.	.	.	.	.	.	.	.
8D/	.	8f\	.	8a-/	.	8dd\	.	8BB-/	-li	.	.	.	.	.	.	.	.	.	.	.
8BB-/	.	8d\	.	8f/	.	8b-/L	.	8D\L	pec-	.	.	.	.	.	.	.	.	.	.	.
8BB-/J	.	8d\J	.	8f/J	.	8a-/J	.	8F\J	.	.	.	.	.	.	.	.	.	.	.	.
!	!	!LO:LB:g=original	!	!	!	!	!	!	!	!	!	!	!	!	!	!	!	!	!	!
=34	=34	=34	=34	=34	=34	=34	=34	=34	=34	=34	=34	=34	=34	=34	=34	=34	=34	=34	=34	=34
4E-\	.	4d\	.	4f/	.	4a-/	.	4A-\	-ca-	2.ryy	2.ryy	2.ryy	.	.	.	.	.	.	.	.
4EE-/	.	4e-\	.	4e-/	.	4g/	.	4G\	-vi	.	.	.	.	.	.	.	.	.	.	.
4r	.	4r	.	4r	.	8r	.	8r	.	.	.	.	.	.	.	.	.	.	.	.
.	.	.	.	.	.	8g-X/	.	8G-X\	et	.	.	.	.	.	.	.	.	.	.	.
=35	=35	=35	=35	=35	=35	=35	=35	=35	=35	=35	=35	=35	=35	=35	=35	=35	=35	=35	=35	=35
*	*	*	*	*	*	*	*	*2\right	*	*	*	*	*	*	*	*	*	*	*	*
8r	.	8r	.	8r	.	2g/	.	2G\	ma-	2.ryy	2.ryy	2.ryy	0.r	.	0.r	.	.	.	.	.
8AAn/	.	8e-\	.	8c/	.	.	.	.	.	.	.	.	.	.	.	.	.	.	.	.
8AA/L	.	8e-\L	.	8c/L	.	.	.	.	.	.	.	.	.	.	.	.	.	.	.	.
8AA/	.	8e-\	.	8c/	.	.	.	.	.	.	.	.	.	.	.	.	.	.	.	.
8AA/	.	8e-\	.	8c/	.	8f/L	.	8F\L	-lum	.	.	.	.	.	.	.	.	.	.	.
8AA/J	.	8e-\J	.	8c/J	.	8e-/J	.	8E-\J	.	.	.	.	.	.	.	.	.	.	.	.
=36	=36	=36	=36	=36	=36	=36	=36	=36	=36	=36	=36	=36	=36	=36	=36	=36	=36	=36	=36	=36
*Xtremolo	*	*Xtremolo	*	*Xtremolo	*	*	*	*	*	*	*	*	*	*	*	*	*	*	*	*
8BB-/L	.	8f\L	.	8d/L	.	8d/L	.	8D\L	co-	2.ryy	2.ryy	2.ryy	.	.	.	.	.	.	.	.
8BB-/J	.	8f\J	.	8d/J	.	8e-/J	.	8E-\J	.	.	.	.	.	.	.	.	.	.	.	.
4BB-/	.	4f\	.	4d/	.	4f/	.	4F\	-ram	.	.	.	.	.	.	.	.	.	.	.
4r	.	4r	.	4r	.	8r	.	8r	.	.	.	.	.	.	.	.	.	.	.	.
.	.	.	.	.	.	8g-X/	.	8G-X\	et	.	.	.	.	.	.	.	.	.	.	.
=37	=37	=37	=37	=37	=37	=37	=37	=37	=37	=37	=37	=37	=37	=37	=37	=37	=37	=37	=37	=37
8r	.	8r	.	8r	.	2g/	.	2G\	ma-	2.ryy	2.ryy	2.ryy	.	.	.	.	0.r	.	0.r	.
8AAn/	.	8e-\	.	8c/	.	.	.	.	.	.	.	.	.	.	.	.	.	.	.	.
*tremolo	*	*tremolo	*	*tremolo	*	*	*	*	*	*	*	*	*	*	*	*	*	*	*	*
8AA/L	.	8e-\L	.	8c/L	.	.	.	.	.	.	.	.	.	.	.	.	.	.	.	.
8AA/	.	8e-\	.	8c/	.	.	.	.	.	.	.	.	.	.	.	.	.	.	.	.
8AA/	.	8e-\	.	8c/	.	8f/L	.	8F\L	-lum	.	.	.	.	.	.	.	.	.	.	.
8AA/J	.	8e-\J	.	8c/J	.	8e-/J	.	8E-\J	.	.	.	.	.	.	.	.	.	.	.	.
=38	=38	=38	=38	=38	=38	=38	=38	=38	=38	=38	=38	=38	=38	=38	=38	=38	=38	=38	=38	=38
*Xtremolo	*	*Xtremolo	*	*Xtremolo	*	*	*	*	*	*	*	*	*	*	*	*	*	*	*	*
8BB-/L	.	8f\L	.	8d/L	.	8d/L	.	8D\L	Co-	2.ryy	2.ryy	2.ryy	.	.	.	.	.	.	.	.
8BB-/J	.	8f\J	.	8d/J	.	8e-/J	.	8E-\J	.	.	.	.	.	.	.	.	.	.	.	.
4BB-/	.	4f\	.	4d/	.	4f/	.	4F\	-ram	.	.	.	.	.	.	.	.	.	.	.
4r	.	4r	.	4r	.	4r	.	4r	.	.	.	.	.	.	.	.	.	.	.	.
!	!	!	!	!LO:LB:g=original	!	!	!	!	!	!	!	!	!	!	!	!	!	!	!	!
=39	=39	=39	=39	=39	=39	=39	=39	=39	=39	=39	=39	=39	=39	=39	=39	=39	=39	=39	=39	=39
.	.	.	.	.	.	8qqbn/	.	16qqBn/	.	.	.	.	.	.	.	.	.	.	.	.
4A-\	.	4e-\	.	4a-/	.	4cc\	.	4c\	Co-	2.ryy	2.ryy	2.ryy	0.r	.	0.r	.	.	.	.	.
4A-\	.	4e-\	.	4a-/	.	4cc\	.	4c\	-ram	.	.	.	.	.	.	.	.	.	.	.
!	!	!	!	!	!	!	!	!LO:LB:g=original	!	!	!	!	!	!	!	!	!	!	!	!
8r	.	8r	.	8r	.	8r	.	8r	.	.	.	.	.	.	.	.	.	.	.	.
8A-\	.	8e-\	.	8a-/	.	8cc\	.	8c\	Co-	.	.	.	.	.	.	.	.	.	.	.
=40	=40	=40	=40	=40	=40	=40	=40	=40	=40	=40	=40	=40	=40	=40	=40	=40	=40	=40	=40	=40
8G\L	.	8e-\L	.	16g/LL	.	(16b-/LL	.	16B-\LL	-ram	2.ryy	2.ryy	2.ryy	.	.	.	.	.	.	.	.
.	.	.	.	16e-/	.	16g/	.	16G\JJ	.	.	.	.	.	.	.	.	.	.	.	.
8A-\J	.	8c\J	.	16c/	.	16a-/	.	16A-\LL	te	.	.	.	.	.	.	.	.	.	.	.
.	.	.	.	16A-/JJ	.	16f/JJ)	.	16F\JJ	.	.	.	.	.	.	.	.	.	.	.	.
4B-\	.	4B-/	.	4G/	.	4e-/	.	4E-\	fe-	.	.	.	.	.	.	.	.	.	.	.
4BB-/	.	4d\	.	[4A-/	.	4fT/	.	[4FT\	.	.	.	.	.	.	.	.	.	.	.	.
!LO:LB:g=original	!	!	!	!	!	!	!	!	!	!	!	!	!	!	!	!	!	!	!	!
=41	=41	=41	=41	=41	=41	=41	=41	=41	=41	=41	=41	=41	=41	=41	=41	=41	=41	=41	=41	=41
4.BB-/	.	4.d\	.	4.A-/]	.	4.f/	.	4.F\]	.	2.ryy	2.ryy	2.ryy	.	.	.	.	0.r	.	0.r	.
8E-\	.	8B-/	.	8G/	.	8e-/	.	8E-\	-cit	.	.	.	.	.	.	.	.	.	.	.
4r	.	4r	.	4r	.	8r	.	4r	.	.	.	.	.	.	.	.	.	.	.	.
!	!	!	!	!	!	!LO:N:vis=4	!	!	!	!	!	!	!	!	!	!	!	!	!	!
.	.	.	.	.	.	8r	.	.	.	.	.	.	.	.	.	.	.	.	.	.
=42	=42	=42	=42	=42	=42	=42	=42	=42	=42	=42	=42	=42	=42	=42	=42	=42	=42	=42	=42	=42
!	!	!LO:TX:b:i:t=Dolce	!	!	!	!LO:TX:a:i:t=dulce	!	!	!	!	!	!	!	!	!	!	!	!	!	!
4BB-/	.	(8d\L	.	8d/L	.	(8f/L	.	8F\	ut	2.ryy	2.ryy	2.ryy	.	.	.	.	.	.	.	.
.	.	8f\)	.	8B-/	.	8b-/)	.	8B-\	jus-	.	.	.	.	.	.	.	.	.	.	.
4r	.	(8d\	.	8d/	.	(8f/	.	8F\	-ti-	.	.	.	.	.	.	.	.	.	.	.
.	.	8f\)	.	8B-/	.	8b-/J)	.	8B-\	-fi-	.	.	.	.	.	.	.	.	.	.	.
!	!	!	!	!	!	!LO:LB:g=original	!	!	!	!	!	!	!	!	!	!	!	!	!	!
4r	.	(8e-\	.	8e-/	.	(8g-X/L	.	8G-X\L	-ce-	.	.	.	.	.	.	.	.	.	.	.
.	.	8g-X\J)	.	8B-/J	.	8b-/J)	.	8B-\J	.	.	.	.	.	.	.	.	.	.	.	.
=43	=43	=43	=43	=43	=43	=43	=43	=43	=43	=43	=43	=43	=43	=43	=43	=43	=43	=43	=43	=43
4BB-/	.	(8f\L	.	4d/	.	(8f/L	.	4F\	-ris	2.ryy	2.ryy	2.ryy	0.r	.	0.r	.	.	.	.	.
.	.	8b-\)	.	.	.	8b-/J)	.	.	.	.	.	.	.	.	.	.	.	.	.	.
4r	.	(8f\	.	4f/	.	(8dd\L	.	4r	.	.	.	.	.	.	.	.	.	.	.	.
.	.	8b-\)	.	.	.	8b-\J)	.	.	.	.	.	.	.	.	.	.	.	.	.	.
4r	.	(8g-X\	.	8g-X/L	.	16ee-\LL	.	4r	.	.	.	.	.	.	.	.	.	.	.	.
.	.	.	.	.	.	(16b-\	.	.	.	.	.	.	.	.	.	.	.	.	.	.
.	.	8b-\J)	.	8e-/J	.	16g-X\)	.	.	.	.	.	.	.	.	.	.	.	.	.	.
.	.	.	.	.	.	16e-\JJ	.	.	.	.	.	.	.	.	.	.	.	.	.	.
!	!	!LO:LB:g=original	!	!	!	!	!	!	!	!	!	!	!	!	!	!	!	!	!	!
=44	=44	=44	=44	=44	=44	=44	=44	=44	=44	=44	=44	=44	=44	=44	=44	=44	=44	=44	=44	=44
4BB-/	.	8d\L	.	8d/L	.	(8f/L	.	8F\	in	2.ryy	2.ryy	2.ryy	.	.	.	.	.	.	.	.
.	.	8f\	.	8B-/	.	8b-/)	.	8B-\	Ser-	.	.	.	.	.	.	.	.	.	.	.
4r	.	8d\	.	8d/	.	(8f/	.	8F\L	-mo-	.	.	.	.	.	.	.	.	.	.	.
.	.	8f\	.	8B-/	.	8b-/)	.	8B-\J	.	.	.	.	.	.	.	.	.	.	.	.
4r	.	8e-\	.	8e-/	.	(8g-X/	.	8G-X\L	-ni-	.	.	.	.	.	.	.	.	.	.	.
.	.	8g-X\J	.	8B-/J	.	8b-/J)	.	8B-\J	.	.	.	.	.	.	.	.	.	.	.	.
=45	=45	=45	=45	=45	=45	=45	=45	=45	=45	=45	=45	=45	=45	=45	=45	=45	=45	=45	=45	=45
4BB-/	.	8f\L	.	4d/	.	8f/L	.	4F\	-bus	2.ryy	2.ryy	2.ryy	.	.	.	.	0.r	.	0.r	.
.	.	8b-\	.	.	.	8b-/	.	.	.	.	.	.	.	.	.	.	.	.	.	.
4r	.	8f\	.	4f/	.	8dd/	.	4r	.	.	.	.	.	.	.	.	.	.	.	.
.	.	8b-\	.	.	.	8ff/J	.	.	.	.	.	.	.	.	.	.	.	.	.	.
4r	.	8g-X\	.	4g-X/	.	16ee-\LL	.	4r	.	.	.	.	.	.	.	.	.	.	.	.
.	.	.	.	.	.	(16b-\	.	.	.	.	.	.	.	.	.	.	.	.	.	.
.	.	8b-\J	.	.	.	16g-X\)	.	.	.	.	.	.	.	.	.	.	.	.	.	.
.	.	.	.	.	.	16e-\JJ	.	.	.	.	.	.	.	.	.	.	.	.	.	.
=46	=46	=46	=46	=46	=46	=46	=46	=46	=46	=46	=46	=46	=46	=46	=46	=46	=46	=46	=46	=46
.	.	.	.	.	.	8qqbn/	.	8qqd/	.	.	.	.	.	.	.	.	.	.	.	.
4A-\	.	4e-\	.	4a-/	.	4cc\	.	4c\	tu-	2.ryy	2.ryy	2.ryy	.	.	.	.	.	.	.	.
4AA-/	.	4e-\	.	4a-/	.	4cc\	.	4c\	-is	.	.	.	.	.	.	.	.	.	.	.
8r	.	8r	.	8r	.	8r	.	8r	.	.	.	.	.	.	.	.	.	.	.	.
8A-\	.	8e-\	.	8a-/	.	8cc\	.	8c\	et	.	.	.	.	.	.	.	.	.	.	.
=47	=47	=47	=47	=47	=47	=47	=47	=47	=47	=47	=47	=47	=47	=47	=47	=47	=47	=47	=47	=47
4G\	.	8d\L	.	16a-/LL	.	16cc\LL	.	16c\LL	vin-	2.ryy	2.ryy	2.ryy	1.r	.	1.r	.	.	.	.	.
.	.	.	.	16gn/	.	16b-\	.	16B-\	.	.	.	.	.	.	.	.	.	.	.	.
.	.	8B-\J	.	16f/	.	16a-\	.	16A-\	.	.	.	.	.	.	.	.	.	.	.	.
.	.	.	.	16e-/JJ	.	16gn\JJ	.	16Gn\JJ	.	.	.	.	.	.	.	.	.	.	.	.
4E-\	.	4G/	.	4e-/	.	4g\	.	4G\	-cas	.	.	.	.	.	.	.	.	.	.	.
!	!	!	!	!	!	!	!	!LO:LB:g=original	!	!	!	!	!	!	!	!	!	!	!	!
8r	.	8r	.	8r	.	8r	.	8r	.	.	.	.	.	.	.	.	.	.	.	.
8E-\	.	8B-/	.	8g/	.	8ee-\	.	8e-\	Vin-	.	.	.	.	.	.	.	.	.	.	.
=48	=48	=48	=48	=48	=48	=48	=48	=48	=48	=48	=48	=48	=48	=48	=48	=48	=48	=48	=48	=48
*	*	*	*	*Xtuplet	*	*	*	*	*	*	*	*	*	*	*	*	*	*	*	*
.	.	.	.	.	.	16qqdd/	.	.	.	.	.	.	.	.	.	.	.	.	.	.
!	!	!	!	!	!	!LO:TUP:a:problem=klamra łukowa, kropka zamiast numeru	!	!	!	!	!	!	!	!	!	!	!	!	!	!
8A-\L	.	8A-/L	.	12a-/L	.	12cc\L	.	16d\LL	-cas	2.ryy	2.ryy	2.ryy	.	.	.	.	.	.	.	.
.	.	.	.	.	.	.	.	16c\JJ	.	.	.	.	.	.	.	.	.	.	.	.
.	.	.	.	12g/	.	12b-\	.	.	.	.	.	.	.	.	.	.	.	.	.	.
8F\J	.	8c/J	.	.	.	.	.	16B-\LL	Cum	.	.	.	.	.	.	.	.	.	.	.
.	.	.	.	12f/J	.	12a-\J	.	.	.	.	.	.	.	.	.	.	.	.	.	.
.	.	.	.	.	.	.	.	16A-\JJ	.	.	.	.	.	.	.	.	.	.	.	.
4B-\	.	4B-/	.	4e-/	.	4g/	.	4G\	in-	.	.	.	.	.	.	.	.	.	.	.
!	!	!	!	!LO:LB:g=original	!	!	!	!	!	!	!	!	!	!	!	!	!	!	!	!
4BB-/	.	[4A-/	.	[4d/	.	[>4f/	.	4F\	-di-	.	.	.	.	.	.	.	.	.	.	.
=49	=49	=49	=49	=49	=49	=49	=49	=49	=49	=49	=49	=49	=49	=49	=49	=49	=49	=49	=49	=49
4.BB-/	.	4.A-/]	.	4.d/]	.	4.f/]	.	4.FT\	-ca-	2.ryy	2.ryy	2.ryy	2.r	.	2.r	.	2.r	.	2.r	.
8E-\	.	8G/	.	8B-/	.	8e-/	.	8E-\	-ris	.	.	.	.	.	.	.	.	.	.	.
4r	.	4r	.	4r	.	4r	.	4r	.	.	.	.	.	.	.	.	.	.	.	.
!	!	!	!	!	!	!LO:LB:g=original	!	!	!	!	!	!	!	!	!	!	!	!	!	!
=50	=50	=50	=50	=50	=50	=50	=50	=50	=50	=50	=50	=50	=50	=50	=50	=50	=50	=50	=50	=50
!LO:TX:t=P:problem=mixed beam	!	!	!	!	!	!	!LO:DY:a:t=fore	!	!	!	!	!	!	!	!	!	!	!	!	!
!	!	!	!LO:DY:b:rj	!	!LO:DY:b:rj	!	!	!	!	!	!	!	!	!	!	!	!	!LO:DY:b:rj	!	!LO:DY:b:rj
!	!LO:DY:b	!	!	!	!	!	!	!	!	!	!	!	!	!LO:DY:b:rj	!	!	!	!	!	!
8BB-/L	f	(8d\L	f	8A-/L	f	(8a-/L	f	0.r	.	2.ryy	2.ryy	2.ryy	2.f\	f	2.a-\	f	2.a-/	f	2.dd\	f
8B-\	.	8f\)	.	8B-/	.	8f/J)	.	.	.	.	.	.	.	.	.	.	.	.	.	.
8BB-/	.	(8d\	.	8A-/	.	8r	.	.	.	.	.	.	.	.	.	.	.	.	.	.
8B-\	.	8f\)	.	8B-/	.	8f/|	.	.	.	.	.	.	.	.	.	.	.	.	.	.
8BB-/	.	(8d\	.	8A-/	.	(8a-/L	.	.	.	.	.	.	.	.	.	.	.	.	.	.
8B-\J	.	8f\J)	.	8B-/J	.	8f/J)	.	.	.	.	.	.	.	.	.	.	.	.	.	.
=51	=51	=51	=51	=51	=51	=51	=51	=51	=51	=51	=51	=51	=51	=51	=51	=51	=51	=51	=51	=51
!LO:TX:t=P:problem=mixed beam	!	!	!	!	!	!	!	!	!	!	!	!	!	!	!	!	!	!	!	!
8BB-/L	.	(8e-\L	.	(8G/L	.	(8b-X/L	.	.	.	2.ryy	2.ryy	2.ryy	2.e-\	.	2.g\	.	2.g/	.	2.ee-\	.
8B-\	.	8g\)	.	8B-/)	.	8g/J)	.	.	.	.	.	.	.	.	.	.	.	.	.	.
8BB-/	.	(8e-\	.	(8G/	.	8r	.	.	.	.	.	.	.	.	.	.	.	.	.	.
8B-\	.	8g\)	.	8B-/)	.	8b-/L|	.	.	.	.	.	.	.	.	.	.	.	.	.	.
8BB-/	.	(8e-\	.	(8G/	.	(8g/	.	.	.	.	.	.	.	.	.	.	.	.	.	.
8B-\J	.	8g\J)	.	8B-/J)	.	8e-/J)	.	.	.	.	.	.	.	.	.	.	.	.	.	.
=52	=52	=52	=52	=52	=52	=52	=52	=52	=52	=52	=52	=52	=52	=52	=52	=52	=52	=52	=52	=52
!LO:TX:t=P:problem=mixed beam	!	!	!	!	!	!	!	!	!	!	!	!	!	!	!	!	!	!	!	!
8BB-/L	.	(8d\L	.	(8A-/L	.	(8f/L	.	.	.	2.ryy	2.ryy	2.ryy	2.B-/	.	2.f\	.	2.ff\	.	2.aa-\	.
8B-\	.	8f\)	.	8B-/)	.	8d/J)	.	.	.	.	.	.	.	.	.	.	.	.	.	.
8BB-/	.	(8d\	.	(8A-/	.	8r	.	.	.	.	.	.	.	.	.	.	.	.	.	.
8B-\	.	8f\)	.	8B-/)	.	8f/L|	.	.	.	.	.	.	.	.	.	.	.	.	.	.
8BB-/	.	(8d\	.	(8A-/	.	(8d/	.	.	.	.	.	.	.	.	.	.	.	.	.	.
8B-\J	.	8f\J)	.	8B-/J)	.	8B-/J)	.	.	.	.	.	.	.	.	.	.	.	.	.	.
!LO:LB:g=original	!	!LO:LB:g=original	!	!	!	!	!	!	!	!	!	!	!	!	!	!	!	!	!	!
=53	=53	=53	=53	=53	=53	=53	=53	=53	=53	=53	=53	=53	=53	=53	=53	=53	=53	=53	=53	=53
!LO:TX:t=P:problem=mixed beam	!	!	!	!	!	!	!	!	!	!	!	!	!	!	!	!	!	!	!	!
8BB-/L	.	(8e-\L	.	(8G/L	.	(8g/L	.	.	.	2.ryy	2.ryy	2.ryy	2.e-\	.	2.g\	.	2.ee-\	.	2.gg\	.
8B-\	.	8g\)	.	8B-/)	.	8e-/J)	.	.	.	.	.	.	.	.	.	.	.	.	.	.
8BB-/	.	(8e-\	.	(8G/	.	8r	.	.	.	.	.	.	.	.	.	.	.	.	.	.
8B-\	.	8g\)	.	8B-/)	.	8e-/L|	.	.	.	.	.	.	.	.	.	.	.	.	.	.
8BB-/	.	(8e-\	.	(8G/	.	(8g/	.	.	.	.	.	.	.	.	.	.	.	.	.	.
8B-\J	.	8g\J)	.	8B-/J)	.	8e-/J)	.	.	.	.	.	.	.	.	.	.	.	.	.	.
=54	=54	=54	=54	=54	=54	=54	=54	=54	=54	=54	=54	=54	=54	=54	=54	=54	=54	=54	=54	=54
*tremolo	*	*	*	*	*	*	*	*	*	*	*	*	*	*	*	*	*	*	*	*
!	!	!	!LO:DY:b	!	!LO:DY:b:rj	!	!LO:DY:a:t=pp.	!	!	!	!	!	!	!	!	!	!	!	!	!
!	!LO:DY:b	!	!	!	!	!	!	!	!	!	!	!	!	!LO:DY:b:rj	!	!	!	!	!	!
8BB-/L	pp	(8d\L	pp	(8A-/L	pp	(8a-/L	pp	0.r	.	2.ryy	2.ryy	2.ryy	2.f\	p	2.a-\	p	2.a-/	pp	2.dd\	pp
8BB-/	.	8f\)	.	8B-/)	.	8f/J)	.	.	.	.	.	.	.	.	.	.	.	.	.	.
8BB-/	.	(8d\	.	(8A-/	.	8r	.	.	.	.	.	.	.	.	.	.	.	.	.	.
8BB-/	.	8f\)	.	8B-/)	.	8f/|	.	.	.	.	.	.	.	.	.	.	.	.	.	.
8BB-/	.	(8d\	.	(8A-/	.	(8a-/L	.	.	.	.	.	.	.	.	.	.	.	.	.	.
8BB-/J	.	8f\J)	.	8B-/J)	.	8f/J)	.	.	.	.	.	.	.	.	.	.	.	.	.	.
=55	=55	=55	=55	=55	=55	=55	=55	=55	=55	=55	=55	=55	=55	=55	=55	=55	=55	=55	=55	=55
8BB-/L	.	(8e-\L	.	(8G/L	.	(8b-/L	.	.	.	2.ryy	2.ryy	2.ryy	2.e-\	.	2.g\	.	2.g/	.	2.ee-\	.
8BB-/	.	8g\)	.	8B-/)	.	8g/J)	.	.	.	.	.	.	.	.	.	.	.	.	.	.
8BB-/	.	(8e-\	.	(8G/	.	8r	.	.	.	.	.	.	.	.	.	.	.	.	.	.
8BB-/	.	8g\)	.	8B-/)	.	8b-/L|	.	.	.	.	.	.	.	.	.	.	.	.	.	.
8BB-/	.	(8e-\	.	(8G/	.	(8g/	.	.	.	.	.	.	.	.	.	.	.	.	.	.
8BB-/J	.	8g\J)	.	8B-/J)	.	8e-/J)	.	.	.	.	.	.	.	.	.	.	.	.	.	.
!	!	!	!	!	!	!	!	!	!	!	!	!	!LO:LB:g=original	!	!	!	!	!	!	!
=56	=56	=56	=56	=56	=56	=56	=56	=56	=56	=56	=56	=56	=56	=56	=56	=56	=56	=56	=56	=56
8BB-/L	.	(8d\L	.	(8A-/L	.	(8f/L	.	.	.	2.ryy	2.ryy	2.ryy	2.B-/	.	2.f\	.	2.ff\	.	2.aa-\	.
8BB-/	.	8f\)	.	8B-/)	.	8d/J)	.	.	.	.	.	.	.	.	.	.	.	.	.	.
8BB-/	.	(8d\	.	(8A-/	.	8r	.	.	.	.	.	.	.	.	.	.	.	.	.	.
8BB-/	.	8f\)	.	8B-/)	.	8f/L|	.	.	.	.	.	.	.	.	.	.	.	.	.	.
8BB-/	.	(8d\	.	(8A-/	.	(8d/	.	.	.	.	.	.	.	.	.	.	.	.	.	.
8BB-/J	.	8f\J)	.	8B-/J)	.	8B-/J)	.	.	.	.	.	.	.	.	.	.	.	.	.	.
!	!	!	!	!LO:LB:g=original	!	!	!	!	!	!	!	!	!	!	!	!	!	!	!	!
=57	=57	=57	=57	=57	=57	=57	=57	=57	=57	=57	=57	=57	=57	=57	=57	=57	=57	=57	=57	=57
8BB-/L	.	(8e-\L	.	(8G/L	.	(8g/L	.	.	.	2.ryy	2.ryy	2.ryy	2.G/	.	2.e-\	.	2.ee-\	.	2.gg\	.
8BB-/	.	8g\)	.	8B-/)	.	8e-/J)	.	.	.	.	.	.	.	.	.	.	.	.	.	.
8BB-/	.	(8e-\	.	(8G/	.	8r	.	.	.	.	.	.	.	.	.	.	.	.	.	.
8BB-/	.	8g\)	.	8B-/)	.	8e-/L|	.	.	.	.	.	.	.	.	.	.	.	.	.	.
8BB-/	.	(8e-\	.	(8G/	.	(8g/	.	.	.	.	.	.	.	.	.	.	.	.	.	.
8BB-/J	.	8g\J)	.	8B-/J)	.	8e-/J)	.	.	.	.	.	.	.	.	.	.	.	.	.	.
!	!	!	!	!	!	!LO:LB:g=original	!	!	!	!	!	!	!	!	!	!	!	!	!	!
=58	=58	=58	=58	=58	=58	=58	=58	=58	=58	=58	=58	=58	=58	=58	=58	=58	=58	=58	=58	=58
!	!LO:DY:b	!	!LO:DY:b	!	!LO:DY:b	!	!LO:DY:a:t=f&colon;e	!	!	!	!	!	!	!	!	!	!	!LO:DY:b:rj	!	!LO:DY:b:rj
4A-\	f	8r	f	8r	f	8r	f	0.r	.	2.ryy	2.ryy	2.ryy	4a-\	f	4a-\	f	4cc\	f	4aa-\	f
.	.	4e-\	.	4a-/	.	4cc\	.	.	.	.	.	.	.	.	.	.	.	.	.	.
4r	.	.	.	.	.	.	.	.	.	.	.	.	2a-\	.	2a-\	.	2cc\	.	2aa-\	.
.	.	4e-\	.	4a-/	.	4cc\	.	.	.	.	.	.	.	.	.	.	.	.	.	.
8r	.	.	.	.	.	.	.	.	.	.	.	.	.	.	.	.	.	.	.	.
8A-\	.	8e-\	.	8a-/	.	8cc\	.	.	.	.	.	.	.	.	.	.	.	.	.	.
=59	=59	=59	=59	=59	=59	=59	=59	=59	=59	=59	=59	=59	=59	=59	=59	=59	=59	=59	=59	=59
4F\	.	8r	.	8r	.	8r	.	.	.	2.ryy	2.ryy	2.ryy	4f\	.	4a-\	.	4dd\	.	4ff\	.
.	.	4B-/	.	4f/	.	4dd\	.	.	.	.	.	.	.	.	.	.	.	.	.	.
4r	.	.	.	.	.	.	.	.	.	.	.	.	2f\	.	2a-\	.	2dd\	.	2ff\	.
.	.	4B-/	.	4f/	.	4dd\	.	.	.	.	.	.	.	.	.	.	.	.	.	.
8r	.	.	.	.	.	.	.	.	.	.	.	.	.	.	.	.	.	.	.	.
8F\	.	8B-/	.	8f/	.	8dd\	.	.	.	.	.	.	.	.	.	.	.	.	.	.
=60	=60	=60	=60	=60	=60	=60	=60	=60	=60	=60	=60	=60	=60	=60	=60	=60	=60	=60	=60	=60
4E-\	.	16e-\LL	.	4g/	.	(16ee-\LL	.	.	.	2.ryy	2.ryy	2.ryy	4e-\	.	4g\	.	4ee-\	.	4gg\	.
.	.	16d\	.	.	.	16dd\)	.	.	.	.	.	.	.	.	.	.	.	.	.	.
.	.	(16g\	.	.	.	(16gg\	.	.	.	.	.	.	.	.	.	.	.	.	.	.
.	.	16f\JJ)	.	.	.	16ff\JJ)	.	.	.	.	.	.	.	.	.	.	.	.	.	.
4r	.	(16e-\LL	.	4r	.	(16ee-\LL	.	.	.	.	.	.	4r	.	4r	.	4r	.	4r	.
.	.	16d\	.	.	.	16dd\	.	.	.	.	.	.	.	.	.	.	.	.	.	.
.	.	16c\	.	.	.	16cc\	.	.	.	.	.	.	.	.	.	.	.	.	.	.
.	.	16B-\JJ)	.	.	.	16b-\JJ)	.	.	.	.	.	.	.	.	.	.	.	.	.	.
4r	.	(16A-/LL	.	4r	.	(16a-/LL	.	.	.	.	.	.	4r	.	4r	.	4r	.	4r	.
.	.	16G/	.	.	.	16g/	.	.	.	.	.	.	.	.	.	.	.	.	.	.
.	.	16F/	.	.	.	16f/	.	.	.	.	.	.	.	.	.	.	.	.	.	.
.	.	16E-/JJ)	.	.	.	16e-/JJ)	.	.	.	.	.	.	.	.	.	.	.	.	.	.
=61	=61	=61	=61	=61	=61	=61	=61	=61	=61	=61	=61	=61	=61	=61	=61	=61	=61	=61	=61	=61
8G\L	.	8F/L	.	8a-/L	.	(16bn\LL	.	.	.	2.ryy	2.ryy	2.ryy	8r	.	8r	.	8r	.	8r	.
.	.	.	.	.	.	16cc\	.	.	.	.	.	.	.	.	.	.	.	.	.	.
8A-\J	.	8A-/J	.	8a-/J	.	16aa-\	.	.	.	.	.	.	8f\	.	8a-\	.	8ff\	.	8aa-\	.
.	.	.	.	.	.	16ff\JJ)	.	.	.	.	.	.	.	.	.	.	.	.	.	.
4B-\	.	4B-/	.	4g/	.	4ee-\	.	.	.	.	.	.	4e-\	.	4g\	.	4ee-\	.	4gg\	.
4BB-/	.	4B-/	.	4f/	.	4dd\	.	.	.	.	.	.	4B-/	.	4f\	.	4dd\	.	4ff\	.
!	!	!LO:LB:g=original	!	!	!	!	!	!	!	!	!	!	!	!	!	!	!	!	!	!
=62	=62	=62	=62	=62	=62	=62	=62	=62	=62	=62	=62	=62	=62	=62	=62	=62	=62	=62	=62	=62
!	!LO:DY:b:rj	!	!LO:DY:b	!	!LO:DY:b	!	!LO:DY:b:t=p&colon;	!	!	!	!	!	!	!	!	!	!	!	!	!
4E-\	p	8r	p	8r	p	8r	p	0.r	.	2.ryy	2.ryy	2.ryy	2.g\	.	2.b-\	p	2.gg\	p	2.bb-X\	.
.	.	8e-'\	.	8g'/L	.	8b-'\L	.	.	.	.	.	.	.	.	.	.	.	.	.	.
*Xtremolo	*	*tremolo	*	*	*	*	*	*	*	*	*	*	*	*	*	*	*	*	*	*
8r	.	8e-'\L	.	8g'/	.	8b-'\	.	.	.	.	.	.	.	.	.	.	.	.	.	.
8E-\L	.	8e-'\	.	8g'/	.	8b-'\	.	.	.	.	.	.	.	.	.	.	.	.	.	.
8E-\	.	8e-'\	.	8g'/	.	8b-'\	.	.	.	.	.	.	.	.	.	.	.	.	.	.
8E-\J	.	8e-'\J	.	8g'/J	.	8b-'\J	.	.	.	.	.	.	.	.	.	.	.	.	.	.
=63	=63	=63	=63	=63	=63	=63	=63	=63	=63	=63	=63	=63	=63	=63	=63	=63	=63	=63	=63	=63
4BB-/	.	8r	.	8r	.	8r	.	.	.	2.ryy	2.ryy	2.ryy	2.f\	.	2.a-\	.	2.ff\	.	2.aa-\	.
.	.	8d'\	.	8f'/	.	8a-'/	.	.	.	.	.	.	.	.	.	.	.	.	.	.
*	*	*	*	*tremolo	*	*tremolo	*	*	*	*	*	*	*	*	*	*	*	*	*	*
8r	.	8d'\L	.	8f'/L	.	8a-'/L	.	.	.	.	.	.	.	.	.	.	.	.	.	.
8BB-/L	.	8d'\	.	8f'/	.	8a-'/	.	.	.	.	.	.	.	.	.	.	.	.	.	.
8BB-/	.	8d'\	.	8f'/	.	8a-'/	.	.	.	.	.	.	.	.	.	.	.	.	.	.
8BB-/J	.	8d'\J	.	8f'/J	.	8a-'/J	.	.	.	.	.	.	.	.	.	.	.	.	.	.
*	*	*	*	*	*	*Xtremolo	*	*	*	*	*	*	*	*	*	*	*	*	*	*
=64	=64	=64	=64	=64	=64	=64	=64	=64	=64	=64	=64	=64	=64	=64	=64	=64	=64	=64	=64	=64
4E-\	.	4B-/	.	4e-/	.	4g/	.	.	.	2.ryy	2.ryy	2.ryy	4e-\	.	4g\	.	4ee-\	.	4gg\	.
!LO:TX:t=P:problem=mixed beam	!	!	!	!	!	!	!	!	!	!	!	!	!	!	!	!	!	!	!	!
8A-\L	.	8c\L	.	8c/L	.	8a-/L	.	.	.	.	.	.	4r	.	4r	.	8cc\L	.	8aa-\L	.
8F\	.	8a-\	.	8A-/	.	8f/	.	.	.	.	.	.	.	.	.	.	8a-\	.	8ff\	.
8B-\	.	8b-\	.	8G/	.	8e-/	.	.	.	.	.	.	8r	.	8r	.	8g\	.	8ee-\	.
8BB-/J	.	8b-\J	.	8B-/J	.	8d/J	.	.	.	.	.	.	8B-/	.	8f\	.	8f\J	.	8dd\J	.
!	!	!	!	!	!	!	!	!	!	!	!	!	!	!	!LO:LB:g=original	!	!	!	!LO:LB:g=original	!
=65	=65	=65	=65	=65	=65	=65	=65	=65	=65	=65	=65	=65	=65	=65	=65	=65	=65	=65	=65	=65
!	!	!	!	!LO:TX:t=P:problem=mixed beam	!	!LO:TX:t=P:problem=mixed beam	!	!	!	!	!	!	!	!	!	!	!	!	!	!
4E-\	.	4b-\	.	8.G/L	.	8.e-/L	.	.	.	2.ryy	2.ryy	2.ryy	4G/	.	4e-\	.	4g/	.	4ee-\	.
.	.	.	.	16ee-\Jk	.	16ee-\Jk	.	.	.	.	.	.	.	.	.	.	.	.	.	.
4E-\	.	4b-\	.	8.b-\L	.	8.b-\L	.	.	.	.	.	.	4G/	.	4e-\	.	4g/	.	4ee-\	.
.	.	.	.	16ee-\K	.	16ee-\K	.	.	.	.	.	.	.	.	.	.	.	.	.	.
4E-\	.	4b-\	.	8.g\	.	8.g\	.	.	.	.	.	.	4G/	.	4e-\	.	4g/	.	4ee-\	.
.	.	.	.	16b-\Jk	.	16b-\Jk	.	.	.	.	.	.	.	.	.	.	.	.	.	.
!	!	!	!	!	!	!LO:LB:g=original	!	!	!	!	!	!	!	!	!	!	!	!	!	!
!	!	!	!	!	!	!	!	!	!	!	!	!	!	!	!	!	!LO:LB:g=original	!	!	!
=66	=66	=66	=66	=66	=66	=66	=66	=66	=66	=66	=66	=66	=66	=66	=66	=66	=66	=66	=66	=66
2E-\	.	2b-\	.	2e- 2G/	.	2e- 2G/	.	2.r	.	2.ryy	2.ryy	2.ryy	2G/	.	2e-\	.	2g/	.	2ee-\	.
4r	.	4r	.	4r	.	4r	.	.	.	.	.	.	4r	.	4r	.	4r	.	4r	.
!LO:LB:g=original	!	!	!	!	!	!	!	!	!	!	!	!	!	!	!	!	!	!	!	!
=67	=67	=67	=67	=67	=67	=67	=67	=67	=67	=67	=67	=67	=67	=67	=67	=67	=67	=67	=67	=67
*tremolo	*	*	*	*	*	*	*	*	*	*	*	*	*	*	*	*	*	*	*	*
!	!	!	!	!	!	!	!	!	!	!	!	!	!LO:TX:a:t=21	!	!LO:TX:a:t=21	!	!LO:TX:a:t=20	!	!LO:TX:a:t=20	!
!	!LO:DY:b	!	!LO:DY:b	!	!LO:DY:b:t=pianiſsi	!	!LO:DY:b:t=pia	!	!	!	!	!	!	!	!	!	!	!	!	!
8E-\L	pp	4e-\	pp	4g/	p	4ee-\	p	(4E-\	Ec-	2.ryy	2.ryy	2.ryy	0.r	.	0.r	.	0.r	.	0.r	.
8E-\	.	.	.	.	.	.	.	.	.	.	.	.	.	.	.	.	.	.	.	.
8E-\	.	4e-\	.	4g/	.	4b-\	.	4BB-/)	.	.	.	.	.	.	.	.	.	.	.	.
8E-\	.	.	.	.	.	.	.	.	.	.	.	.	.	.	.	.	.	.	.	.
.	.	.	.	.	.	.	.	16qqA-/	.	.	.	.	.	.	.	.	.	.	.	.
!	!	!	!	!	!	!	!	!LO:TUP:a:problem=klamra łukowa	!	!	!	!	!	!	!	!	!	!	!	!
8E-\	.	8g\L	.	16f/LL	.	(16a-/LL	.	12G\L	-ce	.	.	.	.	.	.	.	.	.	.	.
.	.	.	.	16e-/JJ	.	16g/	.	.	.	.	.	.	.	.	.	.	.	.	.	.
.	.	.	.	.	.	.	.	12F\	.	.	.	.	.	.	.	.	.	.	.	.
!	!	!	!	!LO:LB:g=original	!	!	!	!	!	!	!	!	!	!	!	!	!	!	!	!
8E-\J	.	8e-\J	.	16A-/LL	.	16f/	.	.	.	.	.	.	.	.	.	.	.	.	.	.
.	.	.	.	.	.	.	.	12E-\J	.	.	.	.	.	.	.	.	.	.	.	.
.	.	.	.	16G/JJ	.	16e-/JJ)	.	.	.	.	.	.	.	.	.	.	.	.	.	.
=68	=68	=68	=68	=68	=68	=68	=68	=68	=68	=68	=68	=68	=68	=68	=68	=68	=68	=68	=68	=68
*	*	*Xtremolo	*	*Xtremolo	*	*	*	*	*	*	*	*	*	*	*	*	*	*	*	*
!LO:TX:t=P:problem=mixed beam	!	!	!	!	!	!	!	!	!	!	!	!	!	!	!	!	!	!	!	!
!	!	!LO:TUP:a:problem=klamra łukowa	!	!	!	!LO:TUP:b:problem=klamra łukowa	!	!LO:TUP:a:problem=klamra łukowa	!	!	!	!	!	!	!	!	!	!	!	!
8B-\L	.	12f\L	.	8A-/L	.	12d/L	.	12D\L	e-	2.ryy	2.ryy	2.ryy	.	.	.	.	.	.	.	.
.	.	12g\	.	.	.	12e-/	.	12E-\	.	.	.	.	.	.	.	.	.	.	.	.
8BB-/J	.	.	.	8A-/J	.	.	.	.	.	.	.	.	.	.	.	.	.	.	.	.
.	.	12a-\J	.	.	.	12f/J	.	12F\J	.	.	.	.	.	.	.	.	.	.	.	.
.	.	8qqa-/	.	.	.	8qqf/	.	8qqF/	.	.	.	.	.	.	.	.	.	.	.	.
4E-\	.	4g\	.	4G/	.	4e-/	.	4E-\	-nim	.	.	.	.	.	.	.	.	.	.	.
8r	.	8r	.	8r	.	8r	.	4r	.	.	.	.	.	.	.	.	.	.	.	.
8BB-/	.	8b-\	.	8d/	.	8f/	.	.	.	.	.	.	.	.	.	.	.	.	.	.
=69	=69	=69	=69	=69	=69	=69	=69	=69	=69	=69	=69	=69	=69	=69	=69	=69	=69	=69	=69	=69
8BB-/L	.	8B-/L	.	(4d/	.	(4f/	.	4F\	i-	2.ryy	2.ryy	2.ryy	.	.	.	.	.	.	.	.
8BB-/	.	8B-/	.	.	.	.	.	.	.	.	.	.	.	.	.	.	.	.	.	.
8BB-/	.	8d/	.	4e-/	.	4g/	.	4G\	-ni-	.	.	.	.	.	.	.	.	.	.	.
8BB-/	.	8d/	.	.	.	.	.	.	.	.	.	.	.	.	.	.	.	.	.	.
8BB-/	.	8B-/	.	4f/)	.	4a-/)	.	4A-\	-qui-	.	.	.	.	.	.	.	.	.	.	.
8BB-/J	.	8B-/J	.	.	.	.	.	.	.	.	.	.	.	.	.	.	.	.	.	.
=70	=70	=70	=70	=70	=70	=70	=70	=70	=70	=70	=70	=70	=70	=70	=70	=70	=70	=70	=70	=70
*Xtremolo	*	*	*	*	*	*	*	*	*	*	*	*	*	*	*	*	*	*	*	*
8E-\L	.	8B-/L	.	(16f/LL	.	(16a-/LL	.	16A-\LL	-ta-	2.ryy	2.ryy	2.ryy	.	.	.	.	.	.	.	.
.	.	.	.	16e-/)	.	16g/	.	16G\JJ	.	.	.	.	.	.	.	.	.	.	.	.
8E-\J	.	8B-/J	.	(16a-/	.	16cc/	.	16c\LL	-ti-	.	.	.	.	.	.	.	.	.	.	.
.	.	.	.	16g/JJ)	.	16b-/JJ)	.	16B-\JJ	.	.	.	.	.	.	.	.	.	.	.	.
4E-\	.	4B-/	.	4g/	.	4b-/	.	4B-\	-bus	.	.	.	.	.	.	.	.	.	.	.
8r	.	8r	.	8r	.	8r	.	8r	.	.	.	.	.	.	.	.	.	.	.	.
8A-\	.	8e-\	.	8a-/	.	8cc\	.	8c\	i-	.	.	.	.	.	.	.	.	.	.	.
=71	=71	=71	=71	=71	=71	=71	=71	=71	=71	=71	=71	=71	=71	=71	=71	=71	=71	=71	=71	=71
4A-\	.	4e-\	.	4a-/	.	4cc\	.	4c\	-ni-	2.ryy	2.ryy	2.ryy	0.r	.	0.r	.	0.r	.	0.r	.
!LO:TX:t=P:problem=mixed beam	!	!	!	!	!	!	!	!	!	!	!	!	!	!	!	!	!	!	!	!
8G\L	.	8e-\L	.	8g/L	.	8b-/L	.	8B-\L	-qui-	.	.	.	.	.	.	.	.	.	.	.
8A-\	.	8c\	.	8e-/	.	(8g/	.	8G\J	.	.	.	.	.	.	.	.	.	.	.	.
8B-\	.	8B-\	.	8c/	.	8a-/	.	8A-\	-ta-	.	.	.	.	.	.	.	.	.	.	.
8BB-/J	.	8B-\J	.	8A-/J	.	8f/J)	.	8F\	.	.	.	.	.	.	.	.	.	.	.	.
!	!	!LO:LB:g=original	!	!	!	!	!	!	!	!	!	!	!	!	!	!	!	!	!	!
=72	=72	=72	=72	=72	=72	=72	=72	=72	=72	=72	=72	=72	=72	=72	=72	=72	=72	=72	=72	=72
4.BB-/	.	4.B-/	.	4.A-/	.	4.f/	.	4.F\	-ti-	2.ryy	2.ryy	2.ryy	.	.	.	.	.	.	.	.
8E-\	.	8B-/	.	8G/	.	8e-/	.	8E-\	-bus	.	.	.	.	.	.	.	.	.	.	.
4r	.	4r	.	4r	.	4r	.	4r	.	.	.	.	.	.	.	.	.	.	.	.
!	!	!	!	!	!	!	!	!LO:PB:g=original	!	!	!	!	!	!	!	!	!	!	!	!
=73	=73	=73	=73	=73	=73	=73	=73	=73	=73	=73	=73	=73	=73	=73	=73	=73	=73	=73	=73	=73
.	.	.	.	.	.	16qqdd/	.	16qqd/	.	.	.	.	.	.	.	.	.	.	.	.
*tremolo	*	*tremolo	*	*	*	*	*	*	*	*	*	*	*	*	*	*	*	*	*	*
8C/L	.	8c/L	.	4e-/	.	8cc\L	.	8c\L	Ec-	2.ryy	2.ryy	2.ryy	.	.	.	.	.	.	.	.
8C/	.	8c/	.	.	.	16bn\L	.	16Bn\L	.	.	.	.	.	.	.	.	.	.	.	.
.	.	.	.	.	.	16cc\JJ	.	16c\JJ	.	.	.	.	.	.	.	.	.	.	.	.
8C/	.	8c/	.	4e-/	.	4g/	.	4G\	-ce	.	.	.	.	.	.	.	.	.	.	.
8C/	.	8c/J	.	.	.	.	.	.	.	.	.	.	.	.	.	.	.	.	.	.
8C/	.	8c/L	.	8r	.	8r	.	8r	.	.	.	.	.	.	.	.	.	.	.	.
8C/J	.	8Bn/J	.	8f/	.	8a-/	.	[8A-\	e-	.	.	.	.	.	.	.	.	.	.	.
=74	=74	=74	=74	=74	=74	=74	=74	=74	=74	=74	=74	=74	=74	=74	=74	=74	=74	=74	=74	=74
*	*	*Xtremolo	*	*	*	*	*	*	*	*	*	*	*	*	*	*	*	*	*	*
8C/L	.	8B-/L	.	4f/	.	4a-/	.	4A-\]	.	2.ryy	2.ryy	2.ryy	.	.	.	.	.	.	.	.
8C/	.	8B-/	.	.	.	.	.	.	.	.	.	.	.	.	.	.	.	.	.	.
8C/	.	8c/	.	4e-/	.	4g/	.	4G\	-nim	.	.	.	.	.	.	.	.	.	.	.
8C/J	.	8c/	.	.	.	.	.	.	.	.	.	.	.	.	.	.	.	.	.	.
*Xtremolo	*	*	*	*	*	*	*	*	*	*	*	*	*	*	*	*	*	*	*	*
8E-\L	.	8e-/	.	8r	.	8r	.	8r	.	.	.	.	.	.	.	.	.	.	.	.
8E-\J	.	8e-/J	.	8c/	.	8c/	.	8C/	i-	.	.	.	.	.	.	.	.	.	.	.
!	!	!	!	!	!	!LO:LB:g=original	!	!	!	!	!	!	!	!	!	!	!	!	!	!
=75	=75	=75	=75	=75	=75	=75	=75	=75	=75	=75	=75	=75	=75	=75	=75	=75	=75	=75	=75	=75
!LO:TX:t=P:problem=mixed beam	!	!LO:TX:t=P:problem=mixed beam	!	!	!	!	!	!	!	!	!	!	!	!	!	!	!	!	!	!
8F\L	.	8f\L	.	8.Bn/L	.	8.d/L	.	4.D\	-ni	2.ryy	2.ryy	2.ryy	0.r	.	0.r	.	0.r	.	0.r	.
8F\	.	8f\	.	.	.	.	.	.	.	.	.	.	.	.	.	.	.	.	.	.
.	.	.	.	16f/Jk	.	16a-/Jk	.	.	.	.	.	.	.	.	.	.	.	.	.	.
8G\	.	8e-\	.	8e-/L	.	8g/L	.	.	.	.	.	.	.	.	.	.	.	.	.	.
8G\	.	8f\	.	8d/	.	8f/	.	8A-\	i-	.	.	.	.	.	.	.	.	.	.	.
8GG/	.	8g\	.	8c/	.	8e-/	.	8G\	-ni-	.	.	.	.	.	.	.	.	.	.	.
8GG/J	.	8G/J	.	8B/J	.	8d/J	.	8F\	-qui-	.	.	.	.	.	.	.	.	.	.	.
=76	=76	=76	=76	=76	=76	=76	=76	=76	=76	=76	=76	=76	=76	=76	=76	=76	=76	=76	=76	=76
4C/	.	4c\	.	8.c/L	.	(8.e-/L	.	8E-\	-ta-	2.ryy	2.ryy	2.ryy	.	.	.	.	.	.	.	.
.	.	.	.	.	.	.	.	8F\	-ti-	.	.	.	.	.	.	.	.	.	.	.
.	.	.	.	16d/Jk	.	16f/Jk)	.	.	.	.	.	.	.	.	.	.	.	.	.	.
8r	.	4r	.	4e-/	.	8g/L|	.	4G\	-bus	.	.	.	.	.	.	.	.	.	.	.
8C/L	.	.	.	.	.	8c'/	.	.	.	.	.	.	.	.	.	.	.	.	.	.
8E-/	.	4e-\	.	8r	.	8c'/	.	8r	.	.	.	.	.	.	.	.	.	.	.	.
8C/J	.	.	.	8c/	.	8c'/J	.	8C/	Con-	.	.	.	.	.	.	.	.	.	.	.
!	!	!	!	!LO:LB:g=original	!	!	!	!	!	!	!	!	!	!	!	!	!	!	!	!
=77	=77	=77	=77	=77	=77	=77	=77	=77	=77	=77	=77	=77	=77	=77	=77	=77	=77	=77	=77	=77
!LO:TX:t=P:problem=mixed beam	!	!LO:TX:t=P:problem=mixed beam	!	!LO:SIC:v:o=8.B-/L	!	!	!	!	!	!	!	!	!	!	!	!	!	!	!	!
8F\L	.	8f\L	.	8.Bn	.	8.d/L	.	(4.D\	-cep-	2.ryy	2.ryy	2.ryy	.	.	.	.	.	.	.	.
8F\	.	8f\	.	.	.	.	.	.	.	.	.	.	.	.	.	.	.	.	.	.
.	.	.	.	16f/Jk	.	16a-/Jk	.	.	.	.	.	.	.	.	.	.	.	.	.	.
8G\	.	8e-\	.	8e-/L	.	(8g/L	.	.	.	.	.	.	.	.	.	.	.	.	.	.
8G\	.	8f\	.	8d/	.	8f/	.	8A-\)	.	.	.	.	.	.	.	.	.	.	.	.
8GG/	.	8g\	.	8c/	.	8e-/	.	8G\	-tus	.	.	.	.	.	.	.	.	.	.	.
!	!	!	!	!LO:SIC:v:o=8B-/J	!	!	!	!	!	!	!	!	!	!	!	!	!	!	!	!
8GG/J	.	8G/J	.	8Bn	.	8d/J)	.	8F\	Con-	.	.	.	.	.	.	.	.	.	.	.
=78	=78	=78	=78	=78	=78	=78	=78	=78	=78	=78	=78	=78	=78	=78	=78	=78	=78	=78	=78	=78
4C/	.	4g\	.	4c/	.	(16f/LL	.	16F\LL	-cep-	2.ryy	2.ryy	2.ryy	.	.	.	.	.	.	.	.
.	.	.	.	.	.	16e-/	.	16E-\JJ	.	.	.	.	.	.	.	.	.	.	.	.
.	.	.	.	.	.	16d/	.	16D\LL	-tus	.	.	.	.	.	.	.	.	.	.	.
.	.	.	.	.	.	16e-/JJ)	.	16E-\JJ	.	.	.	.	.	.	.	.	.	.	.	.
.	.	.	.	.	.	.	.	16qqD/	.	.	.	.	.	.	.	.	.	.	.	.
4CC/	.	4g\	.	4e-/	.	4c/	.	4C/	ſum	.	.	.	.	.	.	.	.	.	.	.
4r	.	4r	.	4r	.	8r	.	4r	.	.	.	.	.	.	.	.	.	.	.	.
.	.	.	.	.	.	8g/	.	.	.	.	.	.	.	.	.	.	.	.	.	.
!LO:LB:g=original	!	!	!	!	!	!	!	!LO:LB:g=original	!	!	!	!	!	!	!	!	!	!	!	!
=79	=79	=79	=79	=79	=79	=79	=79	=79	=79	=79	=79	=79	=79	=79	=79	=79	=79	=79	=79	=79
.	.	.	.	.	.	16qqbn/	.	.	.	.	.	.	.	.	.	.	.	.	.	.
!	!	!	!	!	!	!	!	!LO:TUP:a:problem=klamra łukowa	!	!	!	!	!	!	!	!	!	!	!	!
8r	.	8r	.	8r	.	8cc\	.	12c\L	Con-	2.ryy	2.ryy	2.ryy	0.r	.	0.r	.	0.r	.	0.r	.
.	.	.	.	.	.	.	.	12d\	.	.	.	.	.	.	.	.	.	.	.	.
8C/	.	8g\	.	8en/	.	8r	.	.	.	.	.	.	.	.	.	.	.	.	.	.
.	.	.	.	.	.	.	.	12c\J	.	.	.	.	.	.	.	.	.	.	.	.
.	.	.	.	.	.	16qqf#X/	.	.	.	.	.	.	.	.	.	.	.	.	.	.
!	!	!	!	!	!	!	!	!LO:TUP:a:problem=klamra łukowa	!	!	!	!	!	!	!	!	!	!	!	!
8r	.	8r	.	8r	.	8g/	.	12G\L	.	.	.	.	.	.	.	.	.	.	.	.
.	.	.	.	.	.	.	.	12A-\	.	.	.	.	.	.	.	.	.	.	.	.
8C/	.	8g\	.	8e/	.	8r	.	.	.	.	.	.	.	.	.	.	.	.	.	.
.	.	.	.	.	.	.	.	12G\J	.	.	.	.	.	.	.	.	.	.	.	.
!	!	!	!	!	!	!	!	!LO:TUP:a:problem=klamra łukowa	!	!	!	!	!	!	!	!	!	!	!	!
8r	.	8r	.	8r	.	8r	.	12En\L	.	.	.	.	.	.	.	.	.	.	.	.
.	.	.	.	.	.	.	.	12F\	.	.	.	.	.	.	.	.	.	.	.	.
.	.	.	.	.	.	16qqd/	.	.	.	.	.	.	.	.	.	.	.	.	.	.
8C/	.	8g\	.	8e/	.	8en/	.	.	.	.	.	.	.	.	.	.	.	.	.	.
.	.	.	.	.	.	.	.	12E\J	.	.	.	.	.	.	.	.	.	.	.	.
=80	=80	=80	=80	=80	=80	=80	=80	=80	=80	=80	=80	=80	=80	=80	=80	=80	=80	=80	=80	=80
*tremolo	*	*tremolo	*	*tremolo	*	*	*	*	*	*	*	*	*	*	*	*	*	*	*	*
!	!	!	!	!	!	!LO:TX:t=P:problem=mixed beam	!	!	!	!	!	!	!	!	!	!	!	!	!	!
8C/L	.	8g\L	.	8e-/L	.	8c/L	.	8C/	-cep-	2.ryy	2.ryy	2.ryy	.	.	.	.	.	.	.	.
8C/	.	8g\	.	8e-/	.	8cc\J	.	8c\	-tus	.	.	.	.	.	.	.	.	.	.	.
8C/	.	8g\	.	8e-/	.	4cc\	.	4c\	ſum	.	.	.	.	.	.	.	.	.	.	.
8C/	.	8g\	.	8e-/	.	.	.	.	.	.	.	.	.	.	.	.	.	.	.	.
8C/	.	8g\	.	8e-/	.	8r	.	8r	.	.	.	.	.	.	.	.	.	.	.	.
8C/J	.	8g\J	.	8e-/J	.	8g/	.	8G\	Con-	.	.	.	.	.	.	.	.	.	.	.
=81	=81	=81	=81	=81	=81	=81	=81	=81	=81	=81	=81	=81	=81	=81	=81	=81	=81	=81	=81	=81
8C/L	.	8a-\L	.	8f/L	.	(16a-X/LL	.	16A-\LL	.	2.ryy	2.ryy	2.ryy	.	.	.	.	.	.	.	.
.	.	.	.	.	.	16g/	.	16G\	.	.	.	.	.	.	.	.	.	.	.	.
8C/	.	8a-\	.	8f/	.	16a-/	.	16A-\	.	.	.	.	.	.	.	.	.	.	.	.
.	.	.	.	.	.	16b-/JJ)	.	16B-\JJ	.	.	.	.	.	.	.	.	.	.	.	.
8C/	.	8a-\	.	8f/	.	8cc/L|	.	8c\L	.	.	.	.	.	.	.	.	.	.	.	.
8C/	.	8a-\	.	8f/J	.	8a-/|	.	8A-\	.	.	.	.	.	.	.	.	.	.	.	.
8C/	.	8a-\	.	8f/L	.	8fn/|	.	8F\	.	.	.	.	.	.	.	.	.	.	.	.
8C/J	.	8a-\J	.	8e-X/J	.	8e-/J|	.	8E-\J	.	.	.	.	.	.	.	.	.	.	.	.
!	!	!	!	!	!	!LO:PB:g=original	!	!	!	!	!	!	!	!	!	!	!	!	!	!
=82	=82	=82	=82	=82	=82	=82	=82	=82	=82	=82	=82	=82	=82	=82	=82	=82	=82	=82	=82	=82
.	.	.	.	.	.	16qqan/	.	.	.	.	.	.	.	.	.	.	.	.	.	.
*	*	*	*	*	*	*	*	*Xtuplet	*	*	*	*	*	*	*	*	*	*	*	*
8r	.	8r	.	8r	.	8b-X\	.	12B-X\L	.	2.ryy	2.ryy	2.ryy	.	.	.	.	.	.	.	.
.	.	.	.	.	.	.	.	12c\	.	.	.	.	.	.	.	.	.	.	.	.
8BB-X/	.	8f\	.	8d/	.	8r	.	.	.	.	.	.	.	.	.	.	.	.	.	.
.	.	.	.	.	.	.	.	12B-\J	.	.	.	.	.	.	.	.	.	.	.	.
.	.	.	.	.	.	16qqen/	.	.	.	.	.	.	.	.	.	.	.	.	.	.
!	!	!LO:LB:g=original	!	!	!	!	!	!	!	!	!	!	!	!	!	!	!	!	!	!
8r	.	8r	.	8r	.	8f/	.	12G\L	.	.	.	.	.	.	.	.	.	.	.	.
.	.	.	.	.	.	.	.	12A-\	.	.	.	.	.	.	.	.	.	.	.	.
8BB-/	.	8f\	.	8d/	.	8r	.	.	.	.	.	.	.	.	.	.	.	.	.	.
.	.	.	.	.	.	.	.	12G\J	.	.	.	.	.	.	.	.	.	.	.	.
.	.	.	.	.	.	16qqc/	.	.	.	.	.	.	.	.	.	.	.	.	.	.
8r	.	8r	.	8r	.	8d/	.	12En\L	.	.	.	.	.	.	.	.	.	.	.	.
.	.	.	.	.	.	.	.	12F\	.	.	.	.	.	.	.	.	.	.	.	.
8BB-/	.	8f\	.	8d/	.	8r	.	.	.	.	.	.	.	.	.	.	.	.	.	.
.	.	.	.	.	.	.	.	12E\J	.	.	.	.	.	.	.	.	.	.	.	.
=83	=83	=83	=83	=83	=83	=83	=83	=83	=83	=83	=83	=83	=83	=83	=83	=83	=83	=83	=83	=83
!	!	!	!	!	!	!LO:TX:t=P:problem=mixed beam	!	!	!	!	!	!	!	!	!	!	!	!	!	!
8BB-/L	.	8f\L	.	8d/L	.	8B-X/L	.	8BB-X/	-cep-	2.ryy	2.ryy	2.ryy	0.r	.	0.r	.	0.r	.	0.r	.
8BB-/	.	8f\	.	8d/	.	8b-\J	.	8B-\	-tus	.	.	.	.	.	.	.	.	.	.	.
8BB-/	.	8f\	.	8d/	.	4b-\	.	4B-\	ſum	.	.	.	.	.	.	.	.	.	.	.
8BB-/	.	8f\	.	8d/	.	.	.	.	.	.	.	.	.	.	.	.	.	.	.	.
8BB-/	.	8f\	.	8d/	.	8r	.	8r	.	.	.	.	.	.	.	.	.	.	.	.
8BB-/J	.	8f\J	.	8d/J	.	8f/	.	8F\	Con-	.	.	.	.	.	.	.	.	.	.	.
=84	=84	=84	=84	=84	=84	=84	=84	=84	=84	=84	=84	=84	=84	=84	=84	=84	=84	=84	=84	=84
8BB-/L	.	8g\L	.	8e-X/L	.	(16g/LL	.	16G\LL	.	2.ryy	2.ryy	2.ryy	.	.	.	.	.	.	.	.
.	.	.	.	.	.	16f/	.	16F\	.	.	.	.	.	.	.	.	.	.	.	.
8BB-/	.	8g\	.	8e-X/	.	16g/	.	16G\	.	.	.	.	.	.	.	.	.	.	.	.
.	.	.	.	.	.	16a-/JJ)	.	16A-\JJ	.	.	.	.	.	.	.	.	.	.	.	.
8BB-/	.	8g\	.	8e-X/	.	8b-/L	.	8B-\L	.	.	.	.	.	.	.	.	.	.	.	.
8BB-/	.	8g\	.	8e-X/	.	8g/	.	8G\	.	.	.	.	.	.	.	.	.	.	.	.
8BB-/	.	8g\	.	8e-X/	.	8e-/	.	8E-\	.	.	.	.	.	.	.	.	.	.	.	.
8BB-/J	.	8g\J	.	8e-X/J	.	8d/J	.	8D\J	.	.	.	.	.	.	.	.	.	.	.	.
!	!	!	!	!	!	!	!	!LO:LB:g=original	!	!	!	!	!	!	!	!	!	!	!	!
=85	=85	=85	=85	=85	=85	=85	=85	=85	=85	=85	=85	=85	=85	=85	=85	=85	=85	=85	=85	=85
.	.	.	.	.	.	8qqg/	.	.	.	.	.	.	.	.	.	.	.	.	.	.
8r	.	8r	.	8r	.	8a-/	.	12A-\L	.	2.ryy	2.ryy	2.ryy	.	.	.	.	.	.	.	.
.	.	.	.	.	.	.	.	12B-\	.	.	.	.	.	.	.	.	.	.	.	.
8BBn/	.	8f\	.	8d/	.	8r	.	.	.	.	.	.	.	.	.	.	.	.	.	.
.	.	.	.	.	.	.	.	12A-\J	.	.	.	.	.	.	.	.	.	.	.	.
.	.	.	.	.	.	16qqen/	.	.	.	.	.	.	.	.	.	.	.	.	.	.
8r	.	8r	.	8r	.	8f/	.	12F\L	.	.	.	.	.	.	.	.	.	.	.	.
.	.	.	.	.	.	.	.	12G\	.	.	.	.	.	.	.	.	.	.	.	.
8BB/	.	8f\	.	8d/	.	8r	.	.	.	.	.	.	.	.	.	.	.	.	.	.
.	.	.	.	.	.	.	.	12F\J	.	.	.	.	.	.	.	.	.	.	.	.
.	.	.	.	.	.	16qqc/	.	.	.	.	.	.	.	.	.	.	.	.	.	.
8r	.	8r	.	8r	.	8d/	.	12D\L	.	.	.	.	.	.	.	.	.	.	.	.
.	.	.	.	.	.	.	.	12E-\	.	.	.	.	.	.	.	.	.	.	.	.
8BB/	.	8f\	.	8d/	.	8r	.	.	.	.	.	.	.	.	.	.	.	.	.	.
.	.	.	.	.	.	.	.	12D\J	.	.	.	.	.	.	.	.	.	.	.	.
=86	=86	=86	=86	=86	=86	=86	=86	=86	=86	=86	=86	=86	=86	=86	=86	=86	=86	=86	=86	=86
!LO:SIC:v:o=8BB-/L	!	!	!	!	!	!	!	!	!	!	!	!	!	!	!	!	!	!	!	!
2.BBn	.	8f\L	.	8d/L	.	8Bn/	.	8BBn/	.	2.ryy	2.ryy	2.ryy	.	.	.	.	.	.	.	.
8BB-/	.	8f\	.	8d/	.	4a-/	.	4A-\	.	.	.	.	.	.	.	.	.	.	.	.
8BB-/	.	8f\	.	8d/	.	.	.	.	.	.	.	.	.	.	.	.	.	.	.	.
8BB-/	.	8f\	.	8d/	.	16g/LL	.	16G\LL	.	.	.	.	.	.	.	.	.	.	.	.
.	.	.	.	.	.	16f/JJ	.	16F\JJ	.	.	.	.	.	.	.	.	.	.	.	.
8BB-/	.	8f\	.	8d/	.	8e-/L	.	8E-\L	.	.	.	.	.	.	.	.	.	.	.	.
8BB-/J	.	8f\J	.	8d/J	.	8d/J	.	8D\J	.	.	.	.	.	.	.	.	.	.	.	.
*	*	*	*	*Xtremolo	*	*	*	*	*	*	*	*	*	*	*	*	*	*	*	*
*	*	*Xtremolo	*	*	*	*	*	*	*	*	*	*	*	*	*	*	*	*	*	*
=87	=87	=87	=87	=87	=87	=87	=87	=87	=87	=87	=87	=87	=87	=87	=87	=87	=87	=87	=87	=87
*Xtremolo	*	*	*	*	*	*	*	*	*	*	*	*	*	*	*	*	*	*	*	*
!	!	!	!	!	!	!LO:TX:t=P:problem=mixed beam	!	!	!	!	!	!	!	!	!	!	!	!	!	!
8C/L	.	8g\L	.	8e-/L	.	8c/L	.	8C/	-cep-	2.ryy	2.ryy	2.ryy	2.r	.	2.r	.	4r	.	4r	.
8C/J	.	8g\J	.	8e-/J	.	8cc\J	.	8c\	-tus	.	.	.	.	.	.	.	.	.	.	.
4C/	.	4g\	.	4e-/	.	4cc\	.	4c\	ſum	.	.	.	.	.	.	.	4r	.	4r	.
8r	.	8r	.	8r	.	8r	.	4r	.	.	.	.	.	.	.	.	8r	.	8r	.
!	!LO:DY:b	!	!LO:DY:b	!	!	!	!LO:DY:a:t=for&colon;	!	!	!	!	!	!	!	!	!	!	!	!	!
8BBn/	f	8a-X\	f	8d/	.	8f/	f	.	.	.	.	.	.	.	.	.	8g/	.	8dd\	f
!	!	!	!	!LO:LB:g=original	!	!	!	!	!	!	!	!	!	!	!	!	!	!	!	!
=88	=88	=88	=88	=88	=88	=88	=88	=88	=88	=88	=88	=88	=88	=88	=88	=88	=88	=88	=88	=88
!	!	!	!	!	!	!	!	!	!	!	!	!	!	!LO:DY:b:rj	!	!LO:DY:b:rj	!	!	!	!
8C/L	.	8g\L	.	8c/L	.	16e-/LL	.	4r	.	2.ryy	2.ryy	2.ryy	4G/	f	4G/	p	4e-/	.	4cc\	.
.	.	.	.	.	.	16d/	.	.	.	.	.	.	.	.	.	.	.	.	.	.
8D/J	.	8f\J	.	8d/J	.	16e-/	.	.	.	.	.	.	.	.	.	.	.	.	.	p
.	.	.	.	.	.	16f/JJ	.	.	.	.	.	.	.	.	.	.	.	.	.	.
!LO:TX:t=P:problem=mixed beam	!	!	!	!	!	!	!LO:DY:a:t=p&colon;	!	!	!	!	!	!	!	!	!	!	!	!	!
!	!LO:DY:b	!	!LO:DY:b:rj	!	!LO:DY:b:rj	!	!	!	!	!	!	!	!	!LO:DY:b:rj	!	!	!	!	!	!
8E-\L	p	8e-\L	p	8e-/L	p	8g/L	p	4r	.	.	.	.	4G/	p	4G/	.	4cc\	.	4ee-\	.
8F\	.	8f\	.	8d/	.	8f/	.	.	.	.	.	.	.	.	.	.	.	.	.	.
8G\	.	8g\	.	8B-/	.	8d/	.	4G\	Con-	.	.	.	4G/	.	4G/	.	4g/	.	4dd\	.
8GG/J	.	8g\J	.	8G/J	.	8B-/J	.	.	.	.	.	.	.	.	.	.	.	.	.	.
!	!	!	!	!	!	!LO:LB:g=original	!	!	!	!	!	!	!	!	!	!	!	!	!	!
=89	=89	=89	=89	=89	=89	=89	=89	=89	=89	=89	=89	=89	=89	=89	=89	=89	=89	=89	=89	=89
!LO:TX:t=P:problem=mixed beam	!	!	!	!	!	!LO:TX:t=P:problem=mixed beam	!	!	!	!	!	!	!	!	!	!	!	!	!	!
!	!LO:DY:b	!	!LO:DY:b:rj	!	!LO:DY:b:rj	!	!	!	!	!	!	!	!	!LO:DY:b:rj	!	!LO:DY:b:rj	!	!	!	!
8C/L	f	8g\L	f	8e-/L	f	8c/L	.	8C/	-cep-	2.ryy	2.ryy	2.ryy	4G/	f	4G/	f	4e-/	.	4cc\	f
8c\J	.	8g\J	.	8e-/J	.	8cc\J	.	8c\	-tus	.	.	.	.	.	.	.	.	.	.	.
4C/	.	4g\	.	4e-/	.	4cc\	.	4c\	ſum	.	.	.	4r	.	4r	.	4r	.	4r	.
8r	.	8r	.	8r	.	8r	.	4r	.	.	.	.	4r	.	4r	.	8r	.	8r	.
!	!	!	!	!	!	!	!LO:DY:a:t=f&colon;e	!	!	!	!	!	!	!	!	!	!	!	!	!
8BBn/	.	8a-\	.	8d/	.	8f/	f	.	.	.	.	.	.	.	.	.	8g/	.	8dd\	.
=90	=90	=90	=90	=90	=90	=90	=90	=90	=90	=90	=90	=90	=90	=90	=90	=90	=90	=90	=90	=90
!	!	!	!	!	!	!	!	!	!	!	!	!	!	!	!	!LO:DY:b:rj	!	!	!	!
8C/L	.	8g\L	.	8c/L	.	16e-/LL	.	4r	.	2.ryy	2.ryy	2.ryy	4G/	.	4G/	p	4e-/	.	4cc\	.
.	.	.	.	.	.	16d/	.	.	.	.	.	.	.	.	.	.	.	.	.	.
8D/J	.	8f\J	.	8d/J	.	16e-/	.	.	.	.	.	.	.	p	.	.	.	.	.	.
.	.	.	.	.	.	16f/JJ	.	.	.	.	.	.	.	.	.	.	.	.	.	.
!LO:TX:t=P:problem=mixed beam	!	!LO:TX:t=P:problem=mixed beam	!	!	!	!	!LO:DY:a:t=p&colon;	!	!	!	!	!	!	!	!	!	!	!	!	!
!LO:LB:g=original	!LO:DY:b	!	!LO:DY:b:rj	!	!LO:DY:b:rj	!	!	!	!	!	!	!	!	!	!	!	!	!	!	!
8E-\L	p	8e-\L	p	8e-/L	p	8g/L	p	4r	.	.	.	.	4G/	.	4G/	.	4cc\	.	4ee-\	p
8F\	.	8f\	.	8d/	.	8f/	.	.	.	.	.	.	.	.	.	.	.	.	.	.
8G\	.	8g\	.	8B-/	.	8d/	.	4G\	Co-	.	.	.	4G/	.	4G/	.	4g/	.	4dd\	.
8GG/J	.	8G/J	.	8G/J	.	8B-/J	.	.	.	.	.	.	.	.	.	.	.	.	.	.
!	!	!	!	!	!	!	!	!	!	!	!	!	!LO:LB:g=original	!	!	!	!	!	!	!
=91	=91	=91	=91	=91	=91	=91	=91	=91	=91	=91	=91	=91	=91	=91	=91	=91	=91	=91	=91	=91
!LO:TX:t=P:problem=mixed beam	!	!LO:TX:t=P:problem=mixed beam	!	!LO:TX:t=P:problem=mixed beam	!	!LO:TX:t=P:problem=mixed beam	!	!LO:TX:t=P:problem=mixed beam	!	!	!	!	!	!	!	!	!	!	!	!
!	!LO:DY:b	!	!LO:DY:b	!	!LO:DY:b:rj	!	!	!	!	!	!	!	!	!LO:DY:b:rj	!	!LO:DY:b:rj	!	!	!	!
8C/L	f	8c/L	f	8c/L	f	8c/L	.	8C/L	.	2.ryy	2.ryy	2.ryy	4G/	f	4G/	f	4e-/	.	4cc\	f
8c\	.	8cc\	.	8cc\	.	8cc\	.	8c\	.	.	.	.	.	.	.	.	.	.	.	.
8A-\	.	8a-\	.	8a-\	.	8a-\	.	8A-\	.	.	.	.	4r	.	4r	.	4r	.	4r	.
8F\J	.	8f\	.	8f\J	.	8f\J	.	8F\J	.	.	.	.	.	.	.	.	.	.	.	.
!LO:TX:t=P:problem=mixed beam	!	!	!	!	!	!LO:TX:t=P:problem=mixed beam	!	!	!	!	!	!	!	!	!	!	!	!	!	!
8G\L	.	8e-\	.	8g/L	.	8g\L	.	8G\	-ncep-	.	.	.	4G/	.	4G/	.	8cc\L	.	8ee-\L	.
8GG/J	.	8d\J	.	8G/J	.	8G/J	.	8GG/	-tus	.	.	.	.	.	.	.	8g\J	.	8dd\J	.
!	!	!LO:LB:g=original	!	!	!	!	!	!	!	!	!	!	!	!	!	!	!	!	!	!
=92	=92	=92	=92	=92	=92	=92	=92	=92	=92	=92	=92	=92	=92	=92	=92	=92	=92	=92	=92	=92
!LO:TX:t=P:problem=mixed beam	!	!	!	!	!	!	!	!	!	!	!	!	!	!	!	!	!	!	!	!
8C/L	.	8g\L	.	8c/L	.	8c/L	.	2C/	ſum	2.ryy	2.ryy	2.ryy	8G/L	.	8G/L	.	8e-/L	.	8cc\L	.
8c\J	.	8g\J	.	16d/L	.	16d/L	.	.	.	.	.	.	8G/J	.	8G/J	.	8e-/J	.	8cc\J	.
.	.	.	.	16e-/JJ	.	16e-/JJ	.	.	.	.	.	.	.	.	.	.	.	.	.	.
4C/	.	4g\	.	16f/LL	.	16f/LL	.	.	.	.	.	.	4G/	.	4G/	.	4e-/	.	4cc\	.
.	.	.	.	16g/	.	16g/	.	.	.	.	.	.	.	.	.	.	.	.	.	.
.	.	.	.	16a-/	.	16a-/	.	.	.	.	.	.	.	.	.	.	.	.	.	.
.	.	.	.	16b-/JJ	.	16b-/JJ	.	.	.	.	.	.	.	.	.	.	.	.	.	.
!	!	!	!	!LO:N:vis=4	!	!	!	!	!	!	!	!	!	!	!	!	!	!	!	!
4r	.	4r	.	8cc\	.	8cc\	.	4r	.	.	.	.	4r	.	4r	.	4r	.	4r	.
.	.	.	.	8r	.	8r	.	.	.	.	.	.	.	.	.	.	.	.	.	.
=93	=93	=93	=93	=93	=93	=93	=93	=93	=93	=93	=93	=93	=93	=93	=93	=93	=93	=93	=93	=93
!	!	!LO:TX:a:i:t=dolce	!	!LO:TX:a:i:t=dulce	!	!LO:TX:a:i:t=dulce	!	!	!	!	!	!	!LO:TX:a:t=11	!	!LO:TX:a:t=11	!	!LO:TX:a:t=11	!	!LO:TX:a:t=11	!
!	!LO:DY:b	!	!LO:DY:b	!	!LO:DY:b:rj	!	!LO:DY:b:t=Pia:rj	!	!	!	!	!	!	!	!	!	!	!	!	!
4G 4GG/	p	(8Bn/L	pp	8Bn/L	pp	(8d/L	p	8D\L	et	2.ryy	2.ryy	2.ryy	0.r	.	0.r	.	0.r	.	0.r	.
.	.	8G/)	.	8d/	.	8g/)	.	8G\J	.	.	.	.	.	.	.	.	.	.	.	.
4r	.	(8B/	.	8B/	.	(8d/	.	8D\	in	.	.	.	.	.	.	.	.	.	.	.
!	!	!	!	!	!	!	!	!LO:LB:g=original	!	!	!	!	!	!	!	!	!	!	!	!
.	.	8G/)	.	8d/	.	8g/)	.	8G\	pec-	.	.	.	.	.	.	.	.	.	.	.
4r	.	(8c/	.	8c/	.	(8e-/	.	8E-\L	-ca-	.	.	.	.	.	.	.	.	.	.	.
.	.	8e-/J)	.	8e-/J	.	8g/J)	.	8G\J	.	.	.	.	.	.	.	.	.	.	.	.
=94	=94	=94	=94	=94	=94	=94	=94	=94	=94	=94	=94	=94	=94	=94	=94	=94	=94	=94	=94	=94
!	!	!	!	!LO:SIC:v:o=4B-/	!	!	!LO:DY:a:t=f&colon;o	!	!	!	!	!	!	!	!	!	!	!	!	!
!	!	!	!LO:DY:b:rj	!	!LO:DY:b:rj	!	!	!	!	!	!	!	!	!	!	!	!	!	!	!
4G 4GG/	.	(8d\L	f	4Bn	f	8d/L	f	4D\	-tis	2.ryy	2.ryy	2.ryy	.	.	.	.	.	.	.	.
.	.	8g\)	.	.	.	(8g/	.	.	.	.	.	.	.	.	.	.	.	.	.	.
4r	.	(8d\	.	4d/	.	8b-/	.	4r	.	.	.	.	.	.	.	.	.	.	.	.
.	.	8g\)	.	.	.	8dd/J)	.	.	.	.	.	.	.	.	.	.	.	.	.	.
4r	.	(8e-\	.	4e-/	.	(16cc\LL	.	4r	.	.	.	.	.	.	.	.	.	.	.	.
.	.	.	.	.	.	16g\	.	.	.	.	.	.	.	.	.	.	.	.	.	.
.	.	8g\J)	.	.	.	16e-\	.	.	.	.	.	.	.	.	.	.	.	.	.	.
.	.	.	.	.	.	16c\JJ)	.	.	.	.	.	.	.	.	.	.	.	.	.	.
=95	=95	=95	=95	=95	=95	=95	=95	=95	=95	=95	=95	=95	=95	=95	=95	=95	=95	=95	=95	=95
!	!	!LO:SIC:v:o=8B-/L	!	!LO:SIC:v:o=8B-/L	!	!	!LO:DY:a	!	!	!	!	!	!	!	!	!	!	!	!	!
!	!	!	!LO:DY:b	!	!LO:DY:b:rj	!	!LO:DY:a:t=p&colon;	!	!	!	!	!	!	!	!	!	!	!	!	!
4G 4GG/	.	8Bn	p	8Bn	p	(8d/L	p	8D\L	Con-	2.ryy	2.ryy	2.ryy	.	.	.	.	.	.	.	.
.	.	8G/	.	8d/	.	8g/)	.	8G\J	.	.	.	.	.	.	.	.	.	.	.	.
!	!	!	!	!LO:SIC:v:o=8B-/	!	!	!	!	!	!	!	!	!	!	!	!	!	!	!	!
4r	.	8B-/	.	8Bn	.	(8d/	.	8D\L	-ce-	.	.	.	.	.	.	.	.	.	.	.
.	.	8G/	.	8d/	.	8g/)	.	8G\J	.	.	.	.	.	.	.	.	.	.	.	.
4r	.	8c/	.	8c/	.	(8e-/	.	8E-\L	-pit	.	.	.	.	.	.	.	.	.	.	.
.	.	8e-/J	.	8e-/J	.	8g/J)	.	8G\J	.	.	.	.	.	.	.	.	.	.	.	.
=96	=96	=96	=96	=96	=96	=96	=96	=96	=96	=96	=96	=96	=96	=96	=96	=96	=96	=96	=96	=96
.	.	.	.	.	.	16qqf/	.	.	.	.	.	.	.	.	.	.	.	.	.	.
4G\	.	4g\	.	4c/	.	8e-/L	.	(4E-\	me	2.ryy	2.ryy	2.ryy	.	.	.	.	.	.	.	.
.	.	.	.	.	.	16d/L	.	.	.	.	.	.	.	.	.	.	.	.	.	.
.	.	.	.	.	.	16e-/JJ	.	.	.	.	.	.	.	.	.	.	.	.	.	.
4GG/	.	4g\	.	4B-/	.	4d/	.	4D\)	.	.	.	.	.	.	.	.	.	.	.	.
4r	.	4r	.	4r	.	4r	.	4r	.	.	.	.	.	.	.	.	.	.	.	.
!	!	!	!	!LO:LB:g=original	!	!LO:LB:g=original	!	!	!	!	!	!	!	!	!	!	!	!	!	!
=97	=97	=97	=97	=97	=97	=97	=97	=97	=97	=97	=97	=97	=97	=97	=97	=97	=97	=97	=97	=97
.	.	.	.	.	.	8qqf/	.	.	.	.	.	.	.	.	.	.	.	.	.	.
8r	.	2c/	.	8r	.	2e-/	.	2E-\	ma-	2.ryy	2.ryy	2.ryy	0.r	.	0.r	.	0.r	.	0.r	.
!LO:TX:t=P:problem=mixed beam	!	!	!	!	!	!	!	!	!	!	!	!	!	!	!	!	!	!	!	!
8C/L	.	.	.	8A-X/L	.	.	.	.	.	.	.	.	.	.	.	.	.	.	.	.
8C/	.	.	.	8A-/	.	.	.	.	.	.	.	.	.	.	.	.	.	.	.	.
8C/	.	.	.	8A-/	.	.	.	.	.	.	.	.	.	.	.	.	.	.	.	.
8F\	.	8A-/L	.	8A-/	.	8d/L	.	8D\L	-ter	.	.	.	.	.	.	.	.	.	.	.
8A-\J	.	8F#X/J	.	8A-/J	.	8c/J	.	8C\J	.	.	.	.	.	.	.	.	.	.	.	.
=98	=98	=98	=98	=98	=98	=98	=98	=98	=98	=98	=98	=98	=98	=98	=98	=98	=98	=98	=98	=98
4G\	.	4E-/	.	4A-/	.	4c/	.	4C/	me-	2.ryy	2.ryy	2.ryy	.	.	.	.	.	.	.	.
4GG/	.	4D/	.	4G/	.	4Bn/	.	4BBn/	-a	.	.	.	.	.	.	.	.	.	.	.
4r	.	4r	.	4r	.	4r	.	4r	.	.	.	.	.	.	.	.	.	.	.	.
=99	=99	=99	=99	=99	=99	=99	=99	=99	=99	=99	=99	=99	=99	=99	=99	=99	=99	=99	=99	=99
*	*	*	*	*	*	*	*	*	*ij	*	*	*	*	*	*	*	*	*	*	*
8r	.	2c/	.	8r	.	2e-/	.	2E-\	ma-	2.ryy	2.ryy	2.ryy	.	.	.	.	.	.	.	.
!LO:TX:t=P:problem=mixed beam	!	!	!	!	!	!	!	!	!	!	!	!	!	!	!	!	!	!	!	!
8C/L	.	.	.	8A-X/L	.	.	.	.	.	.	.	.	.	.	.	.	.	.	.	.
8C/	.	.	.	8A-/	.	.	.	.	.	.	.	.	.	.	.	.	.	.	.	.
8C/	.	.	.	8A-/	.	.	.	.	.	.	.	.	.	.	.	.	.	.	.	.
8F\	.	8A-/L	.	8A-/	.	8d/L	.	8D\L	.	.	.	.	.	.	.	.	.	.	.	.
8A-\J	.	8F#X/J	.	8A-/J	.	8c/J	.	8C\J	-ter	.	.	.	.	.	.	.	.	.	.	.
=100	=100	=100	=100	=100	=100	=100	=100	=100	=100	=100	=100	=100	=100	=100	=100	=100	=100	=100	=100	=100
4G\	.	4E-/	.	4A-/	.	4c/	.	4C/	me-	2.ryy	2.ryy	2.ryy	.	.	.	.	.	.	.	.
4GG/	.	4D/	.	4G/	.	4B-/	.	4BB-/	-a	.	.	.	.	.	.	.	.	.	.	.
*	*	*	*	*	*	*	*	*	*Xij	*	*	*	*	*	*	*	*	*	*	*
8r	.	8r	.	8r	.	8r	.	8r	.	.	.	.	.	.	.	.	.	.	.	.
8C/	.	8Bn/	.	8f/	.	8a-/	.	8A-\	Con-	.	.	.	.	.	.	.	.	.	.	.
=101	=101	=101	=101	=101	=101	=101	=101	=101	=101	=101	=101	=101	=101	=101	=101	=101	=101	=101	=101	=101
4C/	.	4c\	.	4f/	.	8a-/L	.	8A-\	-ce-	2.ryy	2.ryy	2.ryy	1.r	.	1.r	.	1.r	.	1.r	.
.	.	.	.	.	.	16g/L	.	16G\LL	-pit	.	.	.	.	.	.	.	.	.	.	.
.	.	.	.	.	.	16a-/JJ	.	16A-\JJ	.	.	.	.	.	.	.	.	.	.	.	.
4CC/	.	4c\	.	4e-/	.	4g/	.	4G\	me	.	.	.	.	.	.	.	.	.	.	.
8r	.	8r	.	8r	.	8r	.	8r	.	.	.	.	.	.	.	.	.	.	.	.
8C/	.	8c\	.	8e-/	.	8cc\	.	(8c\	Ma-	.	.	.	.	.	.	.	.	.	.	.
!LO:LB:g=original	!	!	!	!	!	!	!	!	!	!	!	!	!	!	!	!	!	!	!	!
=102	=102	=102	=102	=102	=102	=102	=102	=102	=102	=102	=102	=102	=102	=102	=102	=102	=102	=102	=102	=102
8F\L	.	8d\L	.	8f/L	.	16b-/LL	.	16B-\LL)	.	2.ryy	2.ryy	2.ryy	.	.	.	.	.	.	.	.
.	.	.	.	.	.	16a-/	.	16A-\JJ	.	.	.	.	.	.	.	.	.	.	.	.
8D\J	.	8f\J	.	8e-/	.	16g/	.	16G\LL	-ter	.	.	.	.	.	.	.	.	.	.	.
.	.	.	.	.	.	16f/JJ	.	16F\JJ	.	.	.	.	.	.	.	.	.	.	.	.
!	!	!LO:LB:g=original	!	!	!	!	!	!LO:LB:g=original	!	!	!	!	!	!	!	!	!	!	!	!
4G\	.	4g\	.	8d/J	.	4e-/	.	(4E-\	me-	.	.	.	.	.	.	.	.	.	.	.
.	.	.	.	4c/	.	.	.	.	.	.	.	.	.	.	.	.	.	.	.	.
4GG/	.	4g\	.	.	.	4d/	.	4D\)	.	.	.	.	.	.	.	.	.	.	.	.
.	.	.	.	8Bn/	.	.	.	.	.	.	.	.	.	.	.	.	.	.	.	.
=103	=103	=103	=103	=103	=103	=103	=103	=103	=103	=103	=103	=103	=103	=103	=103	=103	=103	=103	=103	=103
!	!	!	!	!LO:SIC:v:o=4.B-/	!	!	!	!	!	!	!	!	!	!	!	!	!	!	!	!
4.GG/	.	4.g\	.	4.Bn	.	4.d/	.	(4.D\	-a	2.ryy	2.ryy	2.ryy	2.r	.	2.r	.	2.r	.	2.r	.
8C/	.	8g\	.	8c/	.	8c/	.	8C\)	.	.	.	.	.	.	.	.	.	.	.	.
4r	.	4r	.	4r	.	4r	.	4r	.	.	.	.	.	.	.	.	.	.	.	.
=104	=104	=104	=104	=104	=104	=104	=104	=104	=104	=104	=104	=104	=104	=104	=104	=104	=104	=104	=104	=104
!	!	!LO:TX:t=P:problem=mixed beam	!	!LO:TX:a:i:t=dolce	!	!LO:TX:a:i:t=dulce	!	!LO:TX:a:t=10	!	!	!	!	!	!	!	!	!LO:TX:a:i:t=Dolce	!	!LO:TX:b:i:t=Dolce	!
!	!	!	!LO:DY:b:rj	!	!LO:DY:b:rj	!	!LO:DY:b:t=f&colon;e:rj	!	!	!	!	!	!	!LO:DY:b:rj	!	!	!	!LO:DY:b:rj	!	!
!	!LO:DY:b:rj	!	!	!	!	!	!	!	!	!	!	!	!	!	!	!LO:DY:b:rj	!	!	!	!
(8BBn/L	f	8g\L	f	(8Bn/L	f	(8d/L	f	0.r	.	2.ryy	2.ryy	2.ryy	2.G/	f	2.G/	f	2bn\	p	2dd\	.
8GG/)	.	8B-/	.	8d/)	.	8g/)	.	.	.	.	.	.	.	.	.	.	.	.	.	.
(8BB/	.	8g\	.	(8B/	.	(8d/	.	.	.	.	.	.	.	.	.	.	.	.	.	.
8GG/)	.	8B-/	.	8d/)	.	8g/)	.	.	.	.	.	.	.	.	.	.	.	.	.	.
(8C/	.	8g\	.	(8c/	.	(8e-/	.	.	.	.	.	.	.	.	.	.	4cc\	.	4ee-\	.
8GG/J)	.	8B-/J	.	8e-/J)	.	8g/J)	.	.	.	.	.	.	.	.	.	.	.	.	.	.
=105	=105	=105	=105	=105	=105	=105	=105	=105	=105	=105	=105	=105	=105	=105	=105	=105	=105	=105	=105	=105
!	!LO:DY:b:rj	!	!LO:DY:b	!	!LO:DY:b:rj	!	!LO:DY:a:t=p&colon;	!	!	!	!	!	!	!LO:DY:b:rj	!	!LO:DY:b:rj	!	!	!	!LO:DY:b:rj
(8D/L	p	8g\L	p	4B-/	p	8d/L	p	.	.	2.ryy	2.ryy	2.ryy	2.G/	p	2.G/	p	4b-\	.	8dd\L	p
8GG/)	.	8d\	.	.	.	(8g/	.	.	.	.	.	.	.	.	.	.	.	.	8gg\	.
!LO:SIC:v:o=(8BB-/	!	!	!	!	!	!	!	!	!	!	!	!	!	!	!	!	!	!	!	!
8BBn	.	8g\	.	4d/	.	8b-/	.	.	.	.	.	.	.	.	.	.	4b-\	.	8dd\	.
8GG/)	.	8B-\	.	.	.	8dd/J)	.	.	.	.	.	.	.	.	.	.	.	.	8gg\	.
(8C/	.	8g\	.	4e-/	.	(16cc\LL	.	.	.	.	.	.	.	.	.	.	4cc\	.	8ee-\	.
.	.	.	.	.	.	16g\	.	.	.	.	.	.	.	.	.	.	.	.	.	.
8GG/J)	.	8c\J	.	.	.	16e-\	.	.	.	.	.	.	.	.	.	.	.	.	8gg\J	.
.	.	.	.	.	.	16c\JJ)	.	.	.	.	.	.	.	.	.	.	.	.	.	.
=106	=106	=106	=106	=106	=106	=106	=106	=106	=106	=106	=106	=106	=106	=106	=106	=106	=106	=106	=106	=106
!LO:SIC:v:o=(8BB-/L	!	!LO:TX:t=P:problem=mixed beam	!	!LO:SIC:v:o=(8B-/L	!	!	!LO:DY:a	!	!	!	!	!	!	!	!	!	!	!	!	!
!	!LO:DY:b:rj	!	!LO:DY:b:rj	!	!LO:DY:b:rj	!	!LO:DY:b:t=f&colon;e	!	!	!	!	!	!	!LO:DY:b:rj	!	!LO:DY:b:rj	!	!	!	!LO:DY:b:t=f&colon;
8BBn	f	8g\L	f	8Bn	f	(8d/L	f	.	.	2.ryy	2.ryy	2.ryy	2.G/	f	2.G/	f	2b-\	.	2dd\	f
8GG/)	.	8B-/	.	8d/)	.	8g/)	.	.	.	.	.	.	.	.	.	.	.	.	.	.
!LO:SIC:v:o=(8BB-/	!	!	!	!LO:TSIC:v:s=8Bn	!	!	!	!	!	!	!	!	!	!	!	!	!	!	!	!
8BBn	.	8g\	.	(8B-/	.	(8d/	.	.	.	.	.	.	.	.	.	.	.	.	.	.
8GG/)	.	8B-/	.	8d/)	.	8g/)	.	.	.	.	.	.	.	.	.	.	.	.	.	.
(8C/	.	8g\	.	(8c/	.	(8e-/	.	.	.	.	.	.	.	.	.	.	4cc\	.	4ee-\	.
8GG/J)	.	8B-/J	.	8e-/J)	.	8g/J)	.	.	.	.	.	.	.	.	.	.	.	.	.	.
!	!	!	!	!LO:LB:g=original	!	!LO:LB:g=original	!	!	!	!	!	!	!	!	!	!	!	!	!	!
=107	=107	=107	=107	=107	=107	=107	=107	=107	=107	=107	=107	=107	=107	=107	=107	=107	=107	=107	=107	=107
!	!LO:DY:b:rj	!	!LO:DY:b	!	!LO:DY:b:rj	!	!LO:DY:a:t=pia	!	!	!	!	!	!	!LO:DY:b:rj	!	!LO:DY:b:rj	!	!	!	!
(8D/L	p	8g\L	p	4B-/	p	8d/L	p	.	.	2.ryy	2.ryy	2.ryy	2.G/	p	2.G/	p	4b-\	.	8dd\L	p
8GG/)	.	8d\	.	.	.	(8g/	.	.	.	.	.	.	.	.	.	.	.	.	8gg\	.
!LO:SIC:v:o=(8BB-/	!	!	!	!	!	!	!	!	!	!	!	!	!	!	!	!	!	!	!	!
8BBn	.	8g\	.	4d/	.	8b-/	.	.	.	.	.	.	.	.	.	.	4b-\	.	8dd\	.
8GG/)	.	8B-\	.	.	.	8dd/J)	.	.	.	.	.	.	.	.	.	.	.	.	8gg\J	.
!	!	!	!	!	!	!	!	!	!	!	!	!	!	!	!	!	!	!	!LO:LB:g=original	!
(8C/	.	8g\	.	4e-/	.	16cc/LL	.	.	.	.	.	.	.	.	.	.	4cc\	.	8ee-\L	.
.	.	.	.	.	.	(16g/	.	.	.	.	.	.	.	.	.	.	.	.	.	.
8GG/J)	.	8c\J	.	.	.	16e-/)	.	.	.	.	.	.	.	.	.	.	.	.	8gg\J	.
.	.	.	.	.	.	16c/JJ	.	.	.	.	.	.	.	.	.	.	.	.	.	.
=108	=108	=108	=108	=108	=108	=108	=108	=108	=108	=108	=108	=108	=108	=108	=108	=108	=108	=108	=108	=108
!	!	!	!LO:DY:b	!	!LO:DY:b:rj	!	!LO:DY:a:t=fore	!	!	!	!	!	!	!LO:DY:b:rj	!	!LO:DY:b:rj	!	!	!	!
8r	.	8r	f	8r	f	8r	f	0.r	.	2.ryy	2.ryy	2.ryy	2f\	f	2f\	f	4ff\	f	4aa-\	f
8F\	.	4b-\	.	4f/	.	4a-/	.	.	.	.	.	.	.	.	.	.	.	.	.	.
*tremolo	*	*	*	*	*	*	*	*	*	*	*	*	*	*	*	*	*	*	*	*
8F\L	.	.	.	.	.	.	.	.	.	.	.	.	.	.	.	.	2ff\	.	2aa-\	.
8F\	.	4b-\	.	4f/	.	4a-/	.	.	.	.	.	.	.	.	.	.	.	.	.	.
8F\	.	.	.	.	.	.	.	.	.	.	.	.	4r	.	4r	.	.	.	.	.
8F\J	.	8b-\	.	8f/	.	8a-/	.	.	.	.	.	.	.	.	.	.	.	.	.	.
!	!	!	!	!	!	!	!	!	!	!	!	!	!	!	!LO:LB:g=original	!	!LO:LB:g=original	!	!	!
=109	=109	=109	=109	=109	=109	=109	=109	=109	=109	=109	=109	=109	=109	=109	=109	=109	=109	=109	=109	=109
8r	.	8r	.	8r	.	8r	.	.	.	2.ryy	2.ryy	2.ryy	2G/	.	2g\	.	4dd\	.	4bb-\	.
8D\	.	4f\	.	4d/	.	4b-/	.	.	.	.	.	.	.	.	.	.	.	.	.	.
8D\L	.	.	.	.	.	.	.	.	.	.	.	.	.	.	.	.	2dd\	.	2bb-\	.
8D\	.	4f\	.	4d/	.	4b-/	.	.	.	.	.	.	.	.	.	.	.	.	.	.
8D\	.	.	.	.	.	.	.	.	.	.	.	.	4r	.	4r	.	.	.	.	.
8D\J	.	8f\	.	8d/	.	8b-/	.	.	.	.	.	.	.	.	.	.	.	.	.	.
*Xtremolo	*	*	*	*	*	*	*	*	*	*	*	*	*	*	*	*	*	*	*	*
=110	=110	=110	=110	=110	=110	=110	=110	=110	=110	=110	=110	=110	=110	=110	=110	=110	=110	=110	=110	=110
!	!	!	!	!	!	!	!	!	!	!	!	!	!	!	!LO:TX:a:t=1	!	!	!	!	!
!	!LO:DY:b:rj	!	!LO:DY:b	!	!LO:DY:b:rj	!	!LO:DY:b:t=p&colon;	!	!	!	!	!	!	!	!	!	!	!	!	!
8C/L	p	8c/	p	8e-/	p	(8cc/L	p	.	.	2.ryy	2.ryy	2.ryy	2.r	.	2.r	.	8ee-\	.	(8ccc\L	p
8CC/J	.	4B-/	.	4f/	.	8a-/)	.	.	.	.	.	.	.	.	.	.	4ff\	.	8aa-\)	.
4C/	.	.	.	.	.	(8a-/	.	.	.	.	.	.	.	.	.	.	.	.	(8aa-\	.
.	.	8c/	.	8e-/	.	8g/J)	.	.	.	.	.	.	.	.	.	.	8ee-\	.	8gg\J)	.
8r	.	8r	.	8r	.	8r	.	.	.	.	.	.	.	.	.	.	4r	.	4r	.
!	!LO:DY:b	!	!LO:DY:b	!	!	!	!LO:DY:a:t=f&colon;e	!	!	!	!	!	!	!	!	!	!	!	!	!
8C/	f	8B-/	f	8f/	.	8f/	f	.	.	.	.	.	.	.	.	.	.	.	.	.
=111	=111	=111	=111	=111	=111	=111	=111	=111	=111	=111	=111	=111	=111	=111	=111	=111	=111	=111	=111	=111
!	!	!	!	!	!LO:DY:b:rj	!	!	!	!	!	!	!	!	!	!	!	!	!	!	!
8C\L	.	8c\L	.	16f/LL	f	16f/LL	.	.	.	2.ryy	2.ryy	2.ryy	4r	.	4r	.	8r	.	8r	.
.	.	.	.	16e-/	.	(16e-/	.	.	.	.	.	.	.	.	.	.	.	f	.	.
8F\J	.	8e-\J	.	16d/	.	16d/)	.	.	.	.	.	.	.	.	.	.	8dd\	.	8ff\	.
.	.	.	.	16c/JJ	.	16c/JJ	.	.	.	.	.	.	.	.	.	.	.	.	.	.
4G\	.	4g\	.	4g/	.	4g/	.	.	.	.	.	.	4G/	.	4g\	.	4cc\	.	4ee-\	.
4GG/	.	4G/	.	4G/	.	4G/	.	.	.	.	.	.	4G/	.	4g\	.	4b-\	.	4dd\	.
!	!	!LO:LB:g=original	!	!	!	!	!	!	!	!	!	!	!	!	!	!	!	!	!	!
=112	=112	=112	=112	=112	=112	=112	=112	=112	=112	=112	=112	=112	=112	=112	=112	=112	=112	=112	=112	=112
!	!	!	!	!LO:TX:t=P:problem=mixed beam	!	!LO:TX:t=P:problem=mixed beam	!	!	!	!	!	!	!	!	!	!	!	!	!	!
4C/	.	8.c/L	.	8.c/L	.	8.c/L	.	1.r	.	2.ryy	2.ryy	2.ryy	4G/	.	4G/	.	4cc\	.	4cc\	.
.	.	16c/K	.	16cc\Jk	.	16cc\Jk	.	.	.	.	.	.	.	.	.	.	.	.	.	.
4C/	.	8.G/	.	8.g\L	.	8.g\L	.	.	.	.	.	.	4G/	.	4G/	.	4cc\	.	4cc\	.
.	.	16c/K	.	16cc\K	.	16cc\K	.	.	.	.	.	.	.	.	.	.	.	.	.	.
4C/	.	8.E-/	.	8.e-\	.	8.e-\	.	.	.	.	.	.	4G/	.	4G/	.	4cc\	.	4cc\	.
.	.	16G/Jk	.	16g\Jk	.	16g\Jk	.	.	.	.	.	.	.	.	.	.	.	.	.	.
=113	=113	=113	=113	=113	=113	=113	=113	=113	=113	=113	=113	=113	=113	=113	=113	=113	=113	=113	=113	=113
!	!	!	!	!	!	!	!	!	!	!	!	!	!LO:TX:a:i:t=finis	!	!	!	!	!	!	!
2C/	.	4C/	.	4c/	.	4c/	.	.	.	2.ryy	2.ryy	2.ryy	2G/	.	2G/	.	2cc\	.	2cc\	.
.	.	4c/	.	4cc\	.	4cc\	.	.	.	.	.	.	.	.	.	.	.	.	.	.
!LO:TX:a:i:t=finis	!	!LO:TX:a:i:t=finis	!	!LO:TX:a:i:t=finis	!	!LO:TX:a:i:t=Finis	!	!	!	!	!	!	!	!	!	!	!LO:TX:a:i:t=finis	!	!LO:TX:a:i:t=finis	!
!	!	!	!	!	!	!	!	!LO:TX:a:i:t=finis	!	!	!	!	!	!	!LO:TX:a:i:t=finis	!	!	!	!	!
4r	.	4r	.	4r	.	4r	.	.	.	.	.	.	4r	.	4r	.	4r	.	4r	.
!LO:LB:g=original	!	!	!	!	!	!	!	!	!	!	!	!	!LO:LB:g=original	!	!	!	!	!	!	!
=114||	=114||	=114||	=114||	=114||	=114||	=114||	=114||	=114||	=114||	=114||	=114||	=114||	=114||	=114||	=114||	=114||	=114||	=114||	=114||	=114||
*>B	*	*>B	*	*>B	*	*>B	*	*>B	*	*>B	*>B	*>B	*>B	*	*>B	*	*>B	*	*>B	*
*M3/2	*	*M3/2	*	*M3/2	*	*M3/2	*	*M3/2	*	*M3/2	*M3/2	*M3/2	*M3/2	*	*M3/2	*	*M3/2	*	*M3/2	*
!	!	!	!	!	!	!	!	!	!	!	!	!	!LO:TX:a:t=1	!	!LO:TX:a:t=1	!	!	!	!	!
!LO:TX:a:t=adagio	!	!LO:TX:a:t=adagio	!	!LO:TX:a:i:t=adagio	!	!LO:TX:a:i:t=adagio	!	!LO:TX:a:t=adagio	!	!	!	!	!LO:TX:a:i:t=adagio	!	!LO:TX:a:i:t=adagio	!	!LO:TX:a:i:t=adagio	!	!LO:TX:a:i:t=adagio	!
!	!LO:DY:b	!	!LO:DY:b	!	!LO:DY:b	!	!LO:DY:b:t=p&colon;	!	!	!	!	!	!	!	!	!	!LO:TX:b:i:t=Gloria:color=grey	!	!LO:TX:b:i:t=Gloria:color=grey	!
2E-\	p	2B-/	p	2g/	p	2b-/	p	(<2B-\	Ec-	1.ryy	1.ryy	1.ryy	1.r	.	1.r	.	1.r	.	1.r	.
!	!	!LO:TX:b:i:t=Gloria:color=grey	!	!	!	!	!	!	!	!	!	!	!	!	!	!	!	!	!	!
2E-\	.	2G/	.	2e-/	.	2g/	.	2G\)	.	.	.	.	.	.	.	.	.	.	.	.
.	.	.	.	.	.	8qqb-/	.	.	.	.	.	.	.	.	.	.	.	.	.	.
4A-\	.	4A-/	.	4c/	.	4a-/	.	(4A-\	-ce	.	.	.	.	.	.	.	.	.	.	.
4F\	.	4c/	.	4A-/	.	4f/	.	4F\)	.	.	.	.	.	.	.	.	.	.	.	.
!	!	!	!	!	!	!LO:LB:g=original	!	!	!	!	!	!	!	!	!	!	!	!	!	!
=115	=115	=115	=115	=115	=115	=115	=115	=115	=115	=115	=115	=115	=115	=115	=115	=115	=115	=115	=115	=115
.	.	.	.	.	.	8qqe-/	.	16qqE-/	.	.	.	.	.	.	.	.	.	.	.	.
2BB-/	.	2B-/	.	2A-/	.	2d/	.	2D\	e-	1.ryy	1.ryy	1.ryy	2r	.	2r	.	2r	.	2r	.
2E-\	.	2B-/	.	2G/	.	2e-/	.	2E-\	-nim	.	.	.	2r	.	2r	.	2r	.	2r	.
!	!	!	!	!	!	!	!LO:DY:b:t=pp&colon;	!	!	!	!	!	!	!	!	!	!	!	!	!
2r	.	4r	.	4r	.	4r	pp	2r	.	.	.	.	4r	.	4r	.	4r	pp	4r	.
!	!	!LO:TX:b:i:t=Dolce	!	!LO:TX:a:i:t=dulce	!	!LO:TX:a:i:t=dulce	!	!	!	!	!	!	!	!	!	!	!	!	!	!
!	!	!	!LO:DY:b	!	!LO:DY:b	!	!	!	!	!	!	!	!	!	!	!	!	!	!	!
!	!	!	!	!	!	!	!	!	!	!	!	!	!	!LO:DY:b:rj	!	!LO:DY:b:rj	!	!	!	!
.	.	4B-/	pp	4g/	pp	4ee-\	.	.	.	.	.	.	4G/	p	4e-\	p	4ee-\	.	4gg\	pp
=116	=116	=116	=116	=116	=116	=116	=116	=116	=116	=116	=116	=116	=116	=116	=116	=116	=116	=116	=116	=116
*	*	*	*	*	*	*2\right	*	*	*	*	*	*	*	*	*	*	*	*	*	*
!	!	!	!	!	!	!	!	!LO:TX:a:t=4	!	!	!	!	!LO:TX:a:i:t=Dulce	!	!	!	!LO:TX:b:i:t=Dolce	!	!LO:TX:b:i:t=Dolce	!
2E-\	.	2B-/	.	2g/	.	2ee-\	.	00.r	.	1.ryy	1.ryy	1.ryy	2G/	.	2e-\	.	2ee-\	.	2gg\	.
!	!	!	!	!LO:LB:g=original	!	!	!	!	!	!	!	!	!	!	!	!	!	!	!	!
4r	.	4B-/	.	4f/	.	4dd\	.	.	.	.	.	.	4B-/	.	4f\	.	4dd\	.	4ff\	.
4A-\	.	4e-\	.	4a-/	.	4cc\	.	.	.	.	.	.	4r	.	4r	.	4cc\	.	4aa-\	.
4B-\	.	4d\	.	4g/	.	4b-\	.	.	.	.	.	.	4r	.	4r	.	4b-/	.	4gg\	.
4BB-/	.	4B-/	.	4f/	.	4a-\	.	.	.	.	.	.	4B-/	.	4f\	.	4a-/	.	4ff\	.
=117	=117	=117	=117	=117	=117	=117	=117	=117	=117	=117	=117	=117	=117	=117	=117	=117	=117	=117	=117	=117
.	.	.	.	.	.	8qqb-/	.	.	.	.	.	.	.	.	.	.	.	.	.	.
2E-\	.	2B-/	.	2f/	.	2a-/	.	.	.	1.ryy	1.ryy	1.ryy	2B-/	.	2f\	.	2a-/	.	2ff\	.
2E-\	.	2B-/	.	2e-/	.	2g/	.	.	.	.	.	.	2G/	.	2e-\	.	2g/	.	2ee-\	.
2r	.	4r	.	4r	.	4r	.	.	.	.	.	.	4r	.	4r	.	4r	.	4r	.
.	.	4e-\	.	4a-/	.	4cc\	.	.	.	.	.	.	4a-\	.	4cc\	.	4aa-\	.	4ccc\	.
=118	=118	=118	=118	=118	=118	=118	=118	=118	=118	=118	=118	=118	=118	=118	=118	=118	=118	=118	=118	=118
2A-\	.	2e-\	.	2a-/	.	2cc\	.	.	.	1.ryy	1.ryy	1.ryy	2a-\	.	2cc\	.	2aa-\	.	2ccc\	.
4r	.	4e-\	.	4g/	.	4b-/	.	.	.	.	.	.	4g\	.	4b-\	.	4gg\	.	4bb-\	.
4F\	.	4a-\	.	4c/	.	4a-/	.	.	.	.	.	.	4f\	.	4a-\	.	4cc\	.	4aa-\	.
4BB-/	.	4b-\	.	4B-/	.	4g/	.	.	.	.	.	.	4e-\	.	4g\	.	4b-\	.	4gg\	.
4D\	.	4B-/	.	4A-/	.	4f/	.	.	.	.	.	.	4B-/	.	4f\	.	4a-\	.	4ff\	.
=119	=119	=119	=119	=119	=119	=119	=119	=119	=119	=119	=119	=119	=119	=119	=119	=119	=119	=119	=119	=119
2E-\	.	2B-/	.	2A-/	.	2f/	.	.	.	1.ryy	1.ryy	1.ryy	2B-/	.	2f\	.	2a-/	.	2ff\	.
!	!	!	!	!	!	!	!	!	!	!	!	!	!	!	!	!	!	!	!LO:LB:g=original	!
2E-\	.	2B-/	.	2G/	.	2e-/	.	.	.	.	.	.	2G/	.	2e-\	.	2g/	.	2ee-\	.
2r	.	2r	.	2r	.	2r	.	.	.	.	.	.	2r	.	2r	.	2r	.	2r	.
!	!	!	!	!	!	!	!	!	!	!	!	!	!	!	!	!	!LO:LB:g=original	!	!	!
=120	=120	=120	=120	=120	=120	=120	=120	=120	=120	=120	=120	=120	=120	=120	=120	=120	=120	=120	=120	=120
!	!	!	!	!	!	!	!	!	!	!	!	!	!LO:TX:a:t=17	!	!LO:TX:a:t=17	!	!LO:TX:a:t=17	!	!LO:TX:a:t=17	!
2F\	.	2B-/	.	2f/	.	2a-/	.	(2A-\	Ve-	1.ryy	1.ryy	1.ryy	00.r	.	00.r	.	00.r	.	00.r	.
2D\	.	2B-/	.	2d/	.	2f/	.	2F\)	.	.	.	.	.	.	.	.	.	.	.	.
2BB-/	.	2B-/	.	2f/	.	2a-/	.	2A-\	-ri-	.	.	.	.	.	.	.	.	.	.	.
!	!	!LO:LB:g=original	!	!	!	!	!	!	!	!	!	!	!	!	!	!	!	!	!	!
=121	=121	=121	=121	=121	=121	=121	=121	=121	=121	=121	=121	=121	=121	=121	=121	=121	=121	=121	=121	=121
2E-\	.	4B-/	.	4f/	.	8b-/L	.	8B-\L	-ta-	1.ryy	1.ryy	1.ryy	.	.	.	.	.	.	.	.
.	.	.	.	.	.	8a-/	.	8A-\	.	.	.	.	.	.	.	.	.	.	.	.
.	.	4B-/	.	4d/	.	8g/	.	8G\	.	.	.	.	.	.	.	.	.	.	.	.
.	.	.	.	.	.	8a-/J	.	8A-\J	.	.	.	.	.	.	.	.	.	.	.	.
.	.	.	.	8qqf/	.	8qqa-/	.	16qqA-/	.	.	.	.	.	.	.	.	.	.	.	.
2EE-/	.	2B-/	.	2e-/	.	2g/	.	2G\	-tem	.	.	.	.	.	.	.	.	.	.	.
2r	.	2r	.	2r	.	2r	.	2r	.	.	.	.	.	.	.	.	.	.	.	.
=122	=122	=122	=122	=122	=122	=122	=122	=122	=122	=122	=122	=122	=122	=122	=122	=122	=122	=122	=122	=122
4E-\	.	4B-/	.	4e-/	.	8g/L	.	8G\L	De-	1.ryy	1.ryy	1.ryy	.	.	.	.	.	.	.	.
.	.	.	.	.	.	8f/	.	8F\J	.	.	.	.	.	.	.	.	.	.	.	.
4A-\	.	8A-/L	.	8c/L	.	8a-/	.	8A-\L	-lex-	.	.	.	.	.	.	.	.	.	.	.
.	.	8c/J	.	8A-/J	.	8f/J	.	8F\J	.	.	.	.	.	.	.	.	.	.	.	.
2B-\	.	2B-/	.	2G/	.	2e-/	.	(2E-\	-i-	.	.	.	.	.	.	.	.	.	.	.
2BB-/	.	2B-/	.	2A-/	.	2d/	.	2D\)	-s-	.	.	.	.	.	.	.	.	.	.	.
!	!	!	!	!	!	!	!	!LO:LB:g=original	!	!	!	!	!	!	!	!	!	!	!	!
=123	=123	=123	=123	=123	=123	=123	=123	=123	=123	=123	=123	=123	=123	=123	=123	=123	=123	=123	=123	=123
2E-\	.	2B-/	.	2G/	.	2e-/	.	2E-\	-ti	1.ryy	1.ryy	1.ryy	.	.	.	.	.	.	.	.
2BB-/	.	2B-/	.	2r	.	2r	.	2r	.	.	.	.	.	.	.	.	.	.	.	.
2EE-/	.	2e-\	.	2r	.	2r	.	2r	.	.	.	.	.	.	.	.	.	.	.	.
!LO:LB:g=original	!	!	!	!	!	!LO:LB:g=original	!	!	!	!	!	!	!	!	!	!	!	!	!	!
=124	=124	=124	=124	=124	=124	=124	=124	=124	=124	=124	=124	=124	=124	=124	=124	=124	=124	=124	=124	=124
2A-\	.	2e-\	.	2a-/	.	2cc\	.	2c\	in-	1.ryy	1.ryy	1.ryy	00.r	.	00.r	.	00.r	.	00.r	.
.	.	.	.	.	.	8qqff/	.	.	.	.	.	.	.	.	.	.	.	.	.	.
*	*	*	*	*2\right	*	*	*	*	*	*	*	*	*	*	*	*	*	*	*	*
2A-\	.	2e-\	.	2cc\	.	2ee-\	.	4e-\	-Cer-	.	.	.	.	.	.	.	.	.	.	.
.	.	.	.	.	.	.	.	4e-\	-ta	.	.	.	.	.	.	.	.	.	.	.
2A-\	.	2e-\	.	4b-/	.	4dd\	.	4d\	et	.	.	.	.	.	.	.	.	.	.	.
.	.	.	.	4a-/	.	4cc\	.	4c\	oc-	.	.	.	.	.	.	.	.	.	.	.
=125	=125	=125	=125	=125	=125	=125	=125	=125	=125	=125	=125	=125	=125	=125	=125	=125	=125	=125	=125	=125
.	.	.	.	8qqb-/	.	.	.	.	.	.	.	.	.	.	.	.	.	.	.	.
2E-\	.	2e-\	.	2a-/	.	8dd\L	.	8d\L	-cul-	1.ryy	1.ryy	1.ryy	.	.	.	.	.	.	.	.
.	.	.	.	.	.	8cc\	.	8c\	.	.	.	.	.	.	.	.	.	.	.	.
.	.	.	.	.	.	8b-\	.	8B-\	.	.	.	.	.	.	.	.	.	.	.	.
.	.	.	.	.	.	8cc\J	.	8c\J	.	.	.	.	.	.	.	.	.	.	.	.
2EE-/	.	2e-\	.	2g/	.	2b-\	.	2B-\	-ta	.	.	.	.	.	.	.	.	.	.	.
2r	.	2r	.	2r	.	2r	.	2r	.	.	.	.	.	.	.	.	.	.	.	.
!	!	!	!	!LO:LB:g=original	!	!	!	!	!	!	!	!	!	!	!	!	!	!	!	!
=126	=126	=126	=126	=126	=126	=126	=126	=126	=126	=126	=126	=126	=126	=126	=126	=126	=126	=126	=126	=126
2BB-/	.	2B-/	.	2f/	.	2a-/	.	(2A-\	Sa-	1.ryy	1.ryy	1.ryy	.	.	.	.	.	.	.	.
2D\	.	2B-/	.	2d/	.	2f/	.	2F\)	.	.	.	.	.	.	.	.	.	.	.	.
4E-\	.	4B-/	.	8f/L	.	8a-/L	.	8A-\L	-pi-	.	.	.	.	.	.	.	.	.	.	.
.	.	.	.	8e-/	.	8g/	.	8G\	.	.	.	.	.	.	.	.	.	.	.	.
4G\	.	4B-/	.	8A-/	.	8f/	.	8F\	.	.	.	.	.	.	.	.	.	.	.	.
.	.	.	.	8G/J	.	8e-/J	.	8E-\J	.	.	.	.	.	.	.	.	.	.	.	.
=127	=127	=127	=127	=127	=127	=127	=127	=127	=127	=127	=127	=127	=127	=127	=127	=127	=127	=127	=127	=127
2B-\	.	2B-/	.	4.e-/	.	4.g/	.	4.G\	-enc-	1.ryy	1.ryy	1.ryy	.	.	.	.	.	.	.	.
.	.	.	.	8d/	.	8f/	.	8F\	.	.	.	.	.	.	.	.	.	.	.	.
!LO:TX:a:t=P:problem=♮ above	!	!	!	!	!	!	!	!	!	!	!	!	!	!	!	!	!	!	!	!
2Fn\	.	2b-\	.	2d/	.	2f/	.	2F\	-iae	.	.	.	.	.	.	.	.	.	.	.
2BB-/	.	2r	.	2r	.	2r	.	2r	.	.	.	.	.	.	.	.	.	.	.	.
=128	=128	=128	=128	=128	=128	=128	=128	=128	=128	=128	=128	=128	=128	=128	=128	=128	=128	=128	=128	=128
2BB-/	.	2b-\	.	2d/	.	2f/	.	(2F\	tu-	1.ryy	1.ryy	1.ryy	00.r	.	00.r	.	00.r	.	00.r	.
2r	.	2b-\	.	2e-/	.	2g/	.	2G\)	.	.	.	.	.	.	.	.	.	.	.	.
2D\	.	2b-\	.	2f/	.	2a-/	.	2A-\	-ae	.	.	.	.	.	.	.	.	.	.	.
=129	=129	=129	=129	=129	=129	=129	=129	=129	=129	=129	=129	=129	=129	=129	=129	=129	=129	=129	=129	=129
2E-\	.	2b-\	.	2f/	.	(8b-/L	.	8B-\L	tu-	1.ryy	1.ryy	1.ryy	.	.	.	.	.	.	.	.
.	.	.	.	.	.	8a-/	.	8A-\	.	.	.	.	.	.	.	.	.	.	.	.
.	.	.	.	.	.	8g/	.	8G\	.	.	.	.	.	.	.	.	.	.	.	.
.	.	.	.	.	.	8a-/J)	.	8A-\J	.	.	.	.	.	.	.	.	.	.	.	.
.	.	.	.	8qqg/	.	8qqa-/	.	8qqA-/	.	.	.	.	.	.	.	.	.	.	.	.
2EE-/	.	2b-\	.	2e-/	.	2g/	.	2G\	-ae	.	.	.	.	.	.	.	.	.	.	.
2r	.	2r	.	2r	.	2r	.	2r	.	.	.	.	.	.	.	.	.	.	.	.
=130	=130	=130	=130	=130	=130	=130	=130	=130	=130	=130	=130	=130	=130	=130	=130	=130	=130	=130	=130	=130
4AA-/	.	4cc\	.	4A-/	.	8en/L	.	8En\L	ma-	1.ryy	1.ryy	1.ryy	.	.	.	.	.	.	.	.
.	.	.	.	.	.	8f/	.	8F\J	.	.	.	.	.	.	.	.	.	.	.	.
!	!	!	!	!	!	!	!	!LO:LB:g=original	!	!	!	!	!	!	!	!	!	!	!	!
4C/	.	4a-\	.	8c/L	.	8a-/	.	8A-\	-ni-	.	.	.	.	.	.	.	.	.	.	.
.	.	.	.	8A-/J	.	8f/J	.	8F\	-fes-	.	.	.	.	.	.	.	.	.	.	.
2BB-/	.	2b-\	.	2G/	.	2e-X/	.	(2E-X\	-tas-	.	.	.	.	.	.	.	.	.	.	.
2B-\	.	2B-/	.	2A-/	.	2d/	.	2D\)	.	.	.	.	.	.	.	.	.	.	.	.
=131	=131	=131	=131	=131	=131	=131	=131	=131	=131	=131	=131	=131	=131	=131	=131	=131	=131	=131	=131	=131
.	.	.	.	8qqA-/	.	8qqf/	.	8qqF/	.	.	.	.	.	.	.	.	.	.	.	.
2E-\	.	2B-/	.	2G/	.	2e-/	.	2E-\	-ti	1.ryy	1.ryy	1.ryy	.	.	.	.	.	.	.	.
2BB-/	.	2b-\	.	2r	.	2r	.	2r	.	.	.	.	.	.	.	.	.	.	.	.
!	!	!LO:LB:g=original	!	!	!	!	!	!	!	!	!	!	!	!	!	!	!	!	!	!
2EE-/	.	2e-\	.	2r	.	2r	.	2r	.	.	.	.	.	.	.	.	.	.	.	.
!	!	!	!	!	!	!LO:LB:g=original	!	!	!	!	!	!	!	!	!	!	!	!	!	!
=132	=132	=132	=132	=132	=132	=132	=132	=132	=132	=132	=132	=132	=132	=132	=132	=132	=132	=132	=132	=132
.	.	.	.	.	.	8qqdd-X/	.	8qqd/	.	.	.	.	.	.	.	.	.	.	.	.
2A-\	.	2e-\	.	2a-/	.	2cc\	.	2c\	mi-	1.ryy	1.ryy	1.ryy	00.r	.	00.r	.	00.r	.	00.r	.
2AA-/	.	2e-\	.	2cc\	.	2a-\	.	2A-\	-hi	.	.	.	.	.	.	.	.	.	.	.
2r	.	4r	.	4r	.	4r	.	2r	.	.	.	.	.	.	.	.	.	.	.	.
.	.	4e-\	.	4a-/	.	4cc\	.	.	.	.	.	.	.	.	.	.	.	.	.	.
=133	=133	=133	=133	=133	=133	=133	=133	=133	=133	=133	=133	=133	=133	=133	=133	=133	=133	=133	=133	=133
.	.	.	.	.	.	8qqcc/	.	8qqc/	.	.	.	.	.	.	.	.	.	.	.	.
*	*	*	*	*	*	*	*	*	*ij	*	*	*	*	*	*	*	*	*	*	*
2E-\	.	2e-\	.	2g/	.	2b-\	.	2B-\	mi-	1.ryy	1.ryy	1.ryy	.	.	.	.	.	.	.	.
2EE-/	.	2e-\	.	2e-/	.	2g/	.	2G\	-hi	.	.	.	.	.	.	.	.	.	.	.
*	*	*	*	*	*	*	*	*	*Xij	*	*	*	*	*	*	*	*	*	*	*
4r	.	4r	.	4r	.	4r	.	2r	.	.	.	.	.	.	.	.	.	.	.	.
4E-\	.	4G/	.	4e-/	.	4g/	.	.	.	.	.	.	.	.	.	.	.	.	.	.
=134	=134	=134	=134	=134	=134	=134	=134	=134	=134	=134	=134	=134	=134	=134	=134	=134	=134	=134	=134	=134
4A-\	.	4A-/	.	8d/L	.	8f/L	.	8F\L	ma-	1.ryy	1.ryy	1.ryy	.	.	.	.	.	.	.	.
.	.	.	.	8a-/	.	8cc/	.	8c\J	-ni-	.	.	.	.	.	.	.	.	.	.	.
4F\	.	4c/	.	8g/	.	8b-/	.	8B-\	.	.	.	.	.	.	.	.	.	.	.	.
.	.	.	.	8f/J	.	8a-/J	.	8A-\	-fes-	.	.	.	.	.	.	.	.	.	.	.
2B-\	.	2B-/	.	2e-/	.	2g/	.	(2G\	-tas-	.	.	.	.	.	.	.	.	.	.	.
2BB-/	.	2d\	.	2B-/	.	2f/	.	2F\)	.	.	.	.	.	.	.	.	.	.	.	.
=135	=135	=135	=135	=135	=135	=135	=135	=135	=135	=135	=135	=135	=135	=135	=135	=135	=135	=135	=135	=135
.	.	.	.	.	.	8qqf/	.	8qqF/	.	.	.	.	.	.	.	.	.	.	.	.
2E-\	.	2B-/	.	2G/	.	2e-/	.	2E-\	-ti	1.ryy	1.ryy	1.ryy	.	.	.	.	.	.	.	.
2r	.	2r	.	2r	.	2r	.	2r	.	.	.	.	.	.	.	.	.	.	.	.
!LO:LB:g=original	!	!	!	!LO:PB:g=original	!	!	!	!	!	!	!	!	!	!	!	!	!	!	!	!
2BB-/	.	8B-/L	.	8g/L	.	8b-/L	.	8B-\L	mi-	.	.	.	.	.	.	.	.	.	.	.
.	.	8A-/	.	8f/	.	8a-/	.	8A-\	.	.	.	.	.	.	.	.	.	.	.	.
.	.	8G/	.	8e-/	.	8g/	.	8G\	.	.	.	.	.	.	.	.	.	.	.	.
.	.	8A-/J	.	8f/J	.	8a-/J	.	8A-\J	.	.	.	.	.	.	.	.	.	.	.	.
=136	=136	=136	=136	=136	=136	=136	=136	=136	=136	=136	=136	=136	=136	=136	=136	=136	=136	=136	=136	=136
2BB-/	.	2A-/	.	2f/	.	2a-/	.	(2A-\	-hi	1.ryy	1.ryy	1.ryy	1.r	.	1.r	.	1.r	.	1.r	.
2E-\	.	2B-/	.	2e-/	.	2g/	.	2G\)	.	.	.	.	.	.	.	.	.	.	.	.
2r	.	2r	.	2r	.	2r	.	2r	.	.	.	.	.	.	.	.	.	.	.	.
!	!	!	!	!	!	!	!	!	!	!	!	!	!	!	!LO:LB:g=original	!	!	!	!	!
=137	=137	=137	=137	=137	=137	=137	=137	=137	=137	=137	=137	=137	=137	=137	=137	=137	=137	=137	=137	=137
!	!	!	!	!LO:TX:a:i:t=dulce	!	!LO:TX:a:i:t=dulce	!	!	!	!	!	!	!	!	!	!	!	!	!	!
!	!LO:DY:b:rj	!	!LO:DY:b:rj	!	!LO:DY:b:rj	!	!LO:DY:b:rj:t=f&colon;e	!	!	!	!	!	!	!LO:DY:b:rj	!	!	!	!	!	!
4BB-/	f	4b-\	f	4.d/	f	4.f/	f	00.r	.	1.ryy	1.ryy	1.ryy	4.B-/	f	4.f\	f	4.dd\|	f	4.ff\	f
4BB-/	.	4b-\	.	.	.	.	.	.	.	.	.	.	.	.	.	.	.	.	.	.
!	!	!	!	!	!	!	!	!	!	!	!	!	!	!	!	!	!LO:TX:b:i:t=dolce	!	!LO:TX:b:i:t=dolce	!
.	.	.	.	8f/	.	8a-/	.	.	.	.	.	.	8B-/	.	8f\	.	8ff\	.	8aa-\	.
4D/	.	4b-\	.	4f/	.	4a-/	.	.	.	.	.	.	4B-/	.	4f\	.	4ff\	.	4aa-\	.
4D/	.	4b-\	.	4e-/	.	4g/	.	.	.	.	.	.	4B-/	.	4f\	.	4ee-\	.	4gg\	.
4BB-/	.	4b-\	.	4e-/	.	4g/	.	.	.	.	.	.	4B-/	.	4f\	.	4ee-\	.	4gg\	.
4BB-/	.	4b-\	.	4d/	.	4f/	.	.	.	.	.	.	4B-/	.	4f\	.	4dd\	.	4ff\	.
=138	=138	=138	=138	=138	=138	=138	=138	=138	=138	=138	=138	=138	=138	=138	=138	=138	=138	=138	=138	=138
2E-\	.	4b-\	.	8e-'/L	.	(8g/L	.	.	.	1.ryy	1.ryy	1.ryy	4e-\	.	4g\	.	8ee-\L	.	8gg\L	.
.	.	.	.	8f'/	.	8a-/	.	.	.	.	.	.	.	.	.	.	8ff\	.	8aa-\	.
.	.	4b-\	.	8g'/	.	8b-/	.	.	.	.	.	.	4r	.	4r	.	8gg\	.	8bb-\	.
.	.	.	.	8a-'/J	.	8cc/J)	.	.	.	.	.	.	.	.	.	.	8aa-\J	.	8ccc\J	.
2EE-/	.	4B-/	.	4g/	.	4b-'/	.	.	.	.	.	.	4r	.	4r	.	4gg\	.	4bb-\	.
.	.	4B-/	.	4g/	.	4b-'/	.	.	.	.	.	.	4g\	.	4b-\	.	4gg\	.	4bb-\	.
2r	.	4B-/	.	4g/	.	4b-'/	.	.	.	.	.	.	4f\	.	4a-\	.	4gg\	.	4bb-\	.
.	.	4B-/	.	4g/	.	4b-'/	.	.	.	.	.	.	4e-\	.	4g\	.	4gg\	.	4bb-\	.
=139	=139	=139	=139	=139	=139	=139	=139	=139	=139	=139	=139	=139	=139	=139	=139	=139	=139	=139	=139	=139
!	!LO:DY:b	!	!LO:DY:b	!	!LO:DY:b:rj	!	!LO:DY:a:t=p&colon;	!	!	!	!	!	!	!LO:DY:b:rj	!	!	!	!	!	!
4BB-/	p	4b-\	p	4.d/	p	4.f/	p	.	.	1.ryy	1.ryy	1.ryy	4.B-/	p	4.f\	.	4.dd\	p	4.ff\	p
4BB-/	.	4b-\	.	.	.	.	.	.	.	.	.	.	.	.	.	.	.	.	.	.
.	.	.	.	8f/	.	8a-/	.	.	.	.	.	.	8f\	.	8a-\	.	8ff\	.	8aa-\	.
4D/	.	4b-\	.	(4f/	.	(4a-/	.	.	.	.	.	.	4f\	.	4a-\	.	(4ff\	.	(4aa-\	.
4D/	.	4b-\	.	4e-/)	.	4g/)	.	.	.	.	.	.	4e-\	.	4g\	.	4ee-\)	.	4gg\)	.
4BB-/	.	4b-\	.	(4e-/	.	(4g/	.	.	.	.	.	.	4e-\	.	4g\	.	(4ee-\	.	(4gg\	.
4BB-/	.	4b-\	.	4d/)	.	4f/)	.	.	.	.	.	.	4B-/	.	4f\	.	4dd\)	.	4ff\)	.
!	!	!	!	!	!	!LO:LB:g=original	!	!	!	!	!	!	!	!	!	!	!	!	!	!
!	!	!	!	!	!	!	!	!	!	!	!	!	!LO:LB:g=original	!	!	!	!	!	!	!
=140	=140	=140	=140	=140	=140	=140	=140	=140	=140	=140	=140	=140	=140	=140	=140	=140	=140	=140	=140	=140
2E-\	.	4b-\	.	(8e-/L	.	8g/L	.	.	.	1.ryy	1.ryy	1.ryy	4e-\	.	4g\	.	(8ee-\L	.	8gg\L	.
.	.	.	.	8f/	.	(8a-/	.	.	.	.	.	.	.	.	.	.	8ff\	.	8aa-\	.
.	.	4b-\	.	8g/	.	8b-/	.	.	.	.	.	.	4r	.	4r	.	8gg\	.	8bb-\	.
.	.	.	.	8a-/J)	.	8cc/J)	.	.	.	.	.	.	.	.	.	.	8aa-\J)	.	8ccc\J	.
!	!	!LO:LB:g=original	!	!	!	!	!	!	!	!	!	!	!	!	!	!	!	!	!	!
2EE-/	.	4B-/	.	4g/	.	4b-/	.	.	.	.	.	.	4r	.	4r	.	4gg\	.	4bb-\	.
.	.	4B-/	.	4g/	.	4b-/	.	.	.	.	.	.	4g\	.	4b-\	.	4gg\	.	4bb-\	.
4r	.	4B-/	.	4g/	.	4b-/	.	.	.	.	.	.	4f\	.	4a-\	.	2gg\	.	2bb-\	.
!	!LO:DY:b	!	!	!	!LO:DY:b:rj	!	!	!	!	!	!	!	!	!	!	!	!	!	!	!
4E-\	f	4B-/	.	4g/|	f	4ee-\|	.	.	.	.	.	.	4e-\	.	4g\	.	.	.	.	.
=141	=141	=141	=141	=141	=141	=141	=141	=141	=141	=141	=141	=141	=141	=141	=141	=141	=141	=141	=141	=141
!	!	!	!LO:DY:b	!	!	!	!	!	!	!	!	!	!	!	!	!	!LO:TUP:a:problem=klamra łukowa	!	!LO:TUP:a:problem=klamra łukowa	!
4A-\	.	4c/	f	8f/L	.	8dd\L	.	00.r	.	1.ryy	1.ryy	1.ryy	2r	.	2r	.	6aa-\	f	6ccc\	f
.	.	.	.	8a-/	.	(8cc\	.	.	.	.	.	.	.	.	.	.	.	.	.	.
.	.	.	.	.	.	.	.	.	.	.	.	.	.	.	.	.	6gg\	.	6bb-\	.
4F\	.	4A-/	.	8g/	.	8b-\	.	.	.	.	.	.	.	.	.	.	.	.	.	.
.	.	.	.	.	.	.	.	.	.	.	.	.	.	.	.	.	6ff\	.	6aa-\	.
.	.	.	.	8f/J	.	8a-\J)	.	.	.	.	.	.	.	.	.	.	.	.	.	.
2B-\	.	2B-/	.	2e-/	.	2g/	.	.	.	.	.	.	2e-\	.	2g\	.	2ee-\	.	2gg\	.
2BB-/	.	2B-/	.	2B-/	.	2f/	.	.	.	.	.	.	2B-/	.	2f\	.	2b-/	.	2ff\	.
=142	=142	=142	=142	=142	=142	=142	=142	=142	=142	=142	=142	=142	=142	=142	=142	=142	=142	=142	=142	=142
2E-\	.	2B-/	.	2G/	.	2e-/	.	.	.	1.ryy	1.ryy	1.ryy	2G/	.	2e-\	.	2g/	.	2ee-\	.
2r	.	4r	.	4r	.	4r	.	.	.	.	.	.	4r	.	4r	p	2r	.	2r	.
!	!	!	!	!	!	!	!LO:DY:a:t=p&colon;	!	!	!	!	!	!	!	!	!	!	!	!	!
!	!	!	!LO:DY:b	!LO:LB:g=original	!LO:DY:b	!	!	!	!	!	!	!	!	!LO:DY:b:rj	!	!	!	!	!	!
.	.	4B-/	p	4f/	p	4a-/	p	.	.	.	.	.	4f\	p	4a-\	.	.	.	.	.
2r	.	4B-/	.	4f/	.	4a-/	.	.	.	.	.	.	4f\	.	4a-\	.	2r	.	2r	.
.	.	4B-/	.	4f/	.	4a-/	.	.	.	.	.	.	4f\	.	4a-\	.	.	.	.	.
=143	=143	=143	=143	=143	=143	=143	=143	=143	=143	=143	=143	=143	=143	=143	=143	=143	=143	=143	=143	=143
!	!	!	!LO:DY:b	!	!LO:DY:b:rj	!	!LO:DY:a:t=f&colon;e	!	!	!	!	!	!	!LO:DY:b:rj	!	!LO:DY:b:rj	!	!	!	!
2B-\	.	4.B-/	f	4.f/	f	4.a-/	f	.	.	1.ryy	1.ryy	1.ryy	4.f\	f	4.a-\	f	4.ff\	.	4.aa-\	f
.	.	8B-/	.	8e-/	.	8g/	.	.	.	.	.	.	8e-\	.	8g\	.	8ee-\	.	8gg\	.
2BB-/	.	4B-/	.	4d/	.	4f/	.	.	.	.	.	.	4B-/	.	4f\	.	4dd\	.	4ff\	.
!	!	!	!LO:DY:b:rj	!	!LO:DY:b	!	!LO:DY:a:t=p&colon;	!	!	!	!	!	!	!	!	!LO:DY:b:rj	!	!	!	!
.	.	4e-\	p	4g/	p	4b-\	p	.	.	.	.	.	4g\	p	4b-\	p	4r	.	4r	.
!	!	!	!	!	!	!	!	!	!	!	!	!	!	!	!	!	!	!	!LO:LB:g=original	!
2r	.	4e-\	.	4g/	.	4b-\	.	.	.	.	.	.	4g\	.	4b-\	.	2r	.	2r	.
.	.	4e-\	.	4g/	.	4b-\	.	.	.	.	.	.	4g\	.	4b-\	.	.	.	.	.
=144	=144	=144	=144	=144	=144	=144	=144	=144	=144	=144	=144	=144	=144	=144	=144	=144	=144	=144	=144	=144
!	!	!	!LO:DY:b	!	!LO:DY:b:rj	!	!LO:DY:a:t=f&colon;e	!	!	!	!	!	!	!LO:DY:b:rj	!	!LO:DY:b:rj	!	!	!	!
2E-\	.	4.e-\	f	4.g/	f	4.b-\	f	.	.	1.ryy	1.ryy	1.ryy	4.g\	f	4.b-\	f	4.gg\	.	4.bb-\	f
.	.	8B-/	.	8f/	.	8a-\	.	.	.	.	.	.	8f\	.	8a-\	.	8ff\	.	8aa-\	.
2EE-/	.	4G/	.	4e-/	.	4g\	.	.	.	.	.	.	4e-\	.	4g\	p	4ee-\	.	4gg\	.
!	!	!	!LO:DY:b	!	!LO:DY:b:rj	!	!	!	!	!	!	!	!	!LO:DY:b:rj	!	!	!	!	!	!
.	.	4B-/	p	4g/	p	4ee-\	.	.	.	.	.	.	4G/	p	4e-\	.	4r	.	4r	.
!	!	!	!	!	!	!	!	!	!	!	!	!	!	!	!	!	!LO:LB:g=original	!	!	!
2r	.	4B-/	.	4g/	.	4ee-\	.	.	.	.	.	.	4G/	.	4e-\	.	2r	.	2r	.
.	.	4B-/	.	4g/	.	4ee-\	.	.	.	.	.	.	4G/	.	4e-\	.	.	.	.	.
=145	=145	=145	=145	=145	=145	=145	=145	=145	=145	=145	=145	=145	=145	=145	=145	=145	=145	=145	=145	=145
!	!	!	!LO:DY:b	!	!LO:DY:b:rj	!	!LO:DY:b:t=f&colon;e	!	!	!	!	!	!	!	!	!	!	!	!	!
4A-\	.	4c/	f	4g/	f	8dd\L	f	00.r	.	1.ryy	1.ryy	1.ryy	4r	f	4r	.	4r	.	4r	.
.	.	.	.	.	.	8ee-\	.	.	.	.	.	.	.	.	.	.	.	.	.	.
!	!	!	!	!	!	!	!	!	!	!	!	!	!	!	!	!LO:DY:b:rj	!	!	!	!
4F\	.	4A-/	.	8a-/L	.	8cc\	.	.	.	.	.	.	4f\	.	4a-\	f	4ff\	.	4aa-\	f
.	.	.	.	8f/J	.	8a-\J	.	.	.	.	.	.	.	.	.	.	.	.	.	.
2B-\	.	2B-/	.	2e-/	.	2g/	.	.	.	.	.	.	2e-\	.	2g\	.	2ee-\	.	2gg\	.
2BB-/	.	2B-/	.	2d/	.	2f/	.	.	.	.	.	.	2B-/	.	2f\	.	2b-/	.	2ff\	.
=146	=146	=146	=146	=146	=146	=146	=146	=146	=146	=146	=146	=146	=146	=146	=146	=146	=146	=146	=146	=146
4E-\	.	4B-/	.	4e-/	.	4e-/	.	.	.	1.ryy	1.ryy	1.ryy	4G/	.	4e-\	.	4g/	.	4ee-\	p
!	!	!	!	!	!	!	!LO:DY:b:t=p&colon;	!	!	!	!	!	!	!	!	!	!	!	!	!
4r	.	4r	.	(<8g/L	.	8b-/L	p	.	.	.	.	.	4r	.	4r	.	8gg\L	p	8bb-\L	.
.	.	.	.	8a-/J)	.	8cc/J	.	.	.	.	.	.	.	.	.	.	8aa-\J	.	8ccc\J	.
!	!	!	!	!	!	!	!	!	!	!	!	!	!	!	!LO:LB:g=original	!	!	!	!	!
2r	.	2r	.	(4g/	.	(4b-/	.	.	.	.	.	.	4g\	p	4b-\	.	(4gg\	.	(4bb-\	.
.	.	.	.	4f/)	.	4a-/)	.	.	.	.	.	.	4f\	.	4a-\	.	4ff\)	.	4aa-\)	.
4r	.	4r	.	(4f/	.	(4a-/	.	.	.	.	.	.	4f\	.	4a-\	.	(4ff\	.	(4aa-\	.
4BB-/	.	4B-/	.	4e-/)	.	4g/)	.	.	.	.	.	.	4e-\	.	4g\	.	4ee-\)	.	4gg\)	.
=147	=147	=147	=147	=147	=147	=147	=147	=147	=147	=147	=147	=147	=147	=147	=147	=147	=147	=147	=147	=147
!LO:TX:a:t=P:problem=nadmiarowy takt w ob 1	!	!LO:TX:a:t=P:problem=nadmiarowy takt w ob 1	!	!LO:TX:a:t=P:problem=nadmiarowy takt w ob 1	!	!LO:TX:a:t=P:problem=nadmiarowy takt w ob 1	!	!LO:TX:a:t=P:problem=nadmiarowy takt w ob 1	!	!LO:TX:a:t=P:problem=nadmiarowy takt w ob 1	!LO:TX:a:t=P:problem=nadmiarowy takt w ob 1	!LO:TX:a:t=P:problem=nadmiarowy takt w ob 1	!LLO:TX:a:t=P:problem=nadmiarowy takt w ob 1	!	!LO:TX:a:t=P:problem=nadmiarowy takt w ob 1	!	!LO:TX:a:t=P:problem=nadmiarowy takt w ob 1	!	!	!
!	!	!	!	!	!	!	!	!	!	!	!	!	!LO:TX:a:t=P:problem=nadmiarowy takt w ob 1	!	!	!	!	!	!	!
1.ryy	.	1.ryy	.	1.ryy	.	1.ryy	.	.	.	1.ryy	1.ryy	1.ryy	1.ryy	.	1.ryy	.	1.ryy	.	2gg\	f
.	.	.	.	.	.	.	.	.	.	.	.	.	.	.	.	.	.	.	2ee-\	.
.	.	.	.	.	.	.	.	.	.	.	.	.	.	.	.	.	.	.	2ryy	.
=148	=148	=148	=148	=148	=148	=148	=148	=148	=148	=148	=148	=148	=148	=148	=148	=148	=148	=148	=148	=148
!	!	!	!	!	!	!	!LO:DY:a:t=for&colon;e	!	!	!	!	!	!	!	!	!	!	!	!	!
2E-\	.	2B-/	.	2e-/	.	2g/	f	.	.	1.ryy	1.ryy	1.ryy	2e-\	.	2g\	f	2ee-\	f	1ee-	.
2E-\	.	2B-/	.	2e- 2G/	.	2b- 2e-/	.	.	.	.	.	.	2G/	.	2e-\	.	2g/	.	.	.
2E-\	.	2B-/	.	2e- 2G/	.	2b- 2e-/	.	.	.	.	.	.	2G/	.	2e-\	.	2g/	.	2ee-\	.
!LO:DY:b	!	!	!	!	!	!	!	!	!	!	!	!	!	!	!	!	!	!	!	!
=149	=149	=149	=149	=149	=149	=149	=149	=149	=149	=149	=149	=149	=149	=149	=149	=149	=149	=149	=149	=149
2E-\	.	1B-	.	1e- 1G	.	1b- 1e-	.	1.ryy	.	1.ryy	1.ryy	1.ryy	1G	.	1e-	.	1g	.	1.ee-	.
4G\	.	.	.	.	.	.	.	.	.	.	.	.	.	.	.	.	.	.	.	.
4F\	.	.	.	.	.	.	.	.	.	.	.	.	.	.	.	.	.	.	.	.
4E-\	.	2r	.	2r	.	2r	.	.	.	.	.	.	2r	.	2r	.	2r	.	.	.
4D\	.	.	.	.	.	.	.	.	.	.	.	.	.	.	.	.	.	.	.	.
!	!	!LO:TX:a:i:t=Da\n Capo	!	!	!	!LO:TX:b:i:t=ut Seg.	!	!LO:TX:b:i:t=usq(ue) finis	!	!	!	!	!	!	!	!	!	!	!	!
!LO:TX:b:i:t=Da\n Capo	!	!	!	!LO:TX:a:i:t=Da Capo	!	!LO:TX:a:i:t=Da \n  Capo	!	!LO:TX:a:i:t=Da \n  Capo	!	!	!	!	!LO:TX:b:i:t=Da Capo&colon;.	!	!LO:TX:b:i:t=Da Capo	!	!LO:TX:b:i:t=Da Capo	!	!LO:TX:b:i:t=Da Capo	!
==	==	==	==	==	==	==	==	==	==	==	==	==	==	==	==	==	==	==	==	==
*-	*-	*-	*-	*-	*-	*-	*-	*-	*-	*-	*-	*-	*-	*-	*-	*-	*-	*-	*-	*-
!!!system-decoration: [(g1)][(g2)][(g3)][(g4)][(s12)]
!!!RDF**kern: | = vertical stroke
!!!RDF**kern: > = above
!!!RDF**kern: < = below
!!!ENC: Tomasz Grochalski
!!!END: 2020-10-31
!!!EED: Antoni Szymański
!!!EEV: 2022-04-10
